; generated by Slic3r 1.3.0 on 2021-08-22 at 09:45:08

; external perimeters extrusion width = 0.55mm (5.57mm^3/s)
; perimeters extrusion width = 0.58mm (11.78mm^3/s)
; infill extrusion width = 0.58mm (15.71mm^3/s)
; solid infill extrusion width = 0.58mm (3.93mm^3/s)
; top infill extrusion width = 0.58mm (2.95mm^3/s)

M107
M190 S65 ; set bed temperature and wait for it to be reached
M104 S205 ; set temperature
G28 ; home all axes
G1 Z5 F5000 ; lift nozzle

; Filament gcode

M109 S205 ; set temperature and wait for it to be reached
G21 ; set units to millimeters
G90 ; use absolute coordinates
M82 ; use absolute distances for extrusion
G92 E0
G1 Z0.500 F7800.000
G1 E-2.00000 F2400.00000
G92 E0
G1 X35.933 Y37.101 F7800.000
G1 E2.00000 F2400.00000
G1 F1800
G1 X37.204 Y35.828 E2.33391
G1 X54.366 Y22.634 E6.35108
G1 X55.925 Y21.732 E6.68531
G1 X65.095 Y17.926 E8.52769
G1 X67.163 Y17.424 E8.92262
G1 X120.873 Y12.935 E18.92438
G1 X124.089 Y13.438 E19.52844
G1 X144.075 Y21.732 E23.54388
G1 X145.634 Y22.634 E23.87810
G1 X162.796 Y35.828 E27.89529
G1 X164.067 Y37.101 E28.22919
G1 X177.236 Y54.296 E32.24836
G1 X178.133 Y55.854 E32.58192
G1 X181.932 Y65.042 E34.42685
G1 X182.431 Y67.103 E34.82046
G1 X186.911 Y120.917 E44.84122
G1 X186.412 Y124.122 E45.44317
G1 X178.134 Y144.146 E49.46409
G1 X177.236 Y145.704 E49.79769
G1 X164.067 Y162.899 E53.81686
G1 X162.796 Y164.172 E54.15077
G1 X145.634 Y177.366 E58.16796
G1 X144.075 Y178.268 E58.50217
G1 X134.905 Y182.074 E60.34455
G1 X132.837 Y182.576 E60.73949
G1 X79.127 Y187.065 E70.74125
G1 X75.911 Y186.562 E71.34530
G1 X55.925 Y178.268 E75.36074
G1 X54.366 Y177.366 E75.69497
G1 X37.204 Y164.172 E79.71214
G1 X35.933 Y162.899 E80.04605
G1 X22.764 Y145.704 E84.06523
G1 X21.866 Y144.146 E84.39882
G1 X18.068 Y134.958 E86.24371
G1 X17.569 Y132.897 E86.63733
G1 X13.089 Y79.083 E96.65808
G1 X13.588 Y75.878 E97.26005
G1 X21.866 Y55.854 E101.28096
G1 X22.764 Y54.296 E101.61455
G1 X35.887 Y37.161 E105.61981
G1 E103.61981 F2400.00000
G92 E0
G1 X81.530 Y83.982 F7800.000
G1 E2.00000 F2400.00000
G1 F1800
G1 X85.627 Y80.101 E3.04719
G1 X91.297 Y77.032 E4.24367
G1 X96.224 Y75.709 E5.19018
G1 X100.000 Y75.211 E5.89705
G1 X106.406 Y76.056 E7.09605
G1 X112.374 Y78.533 E8.29525
G1 X115.361 Y80.830 E8.99438
G1 X119.866 Y85.606 E10.21275
G1 X122.929 Y91.285 E11.41017
G1 X124.248 Y96.219 E12.35790
G1 X124.745 Y100.000 E13.06561
G1 X123.902 Y106.415 E14.26623
G1 X121.431 Y112.393 E15.46662
G1 X119.140 Y115.384 E16.16594
G1 X114.373 Y119.899 E17.38424
G1 X108.703 Y122.968 E18.58071
G1 X103.776 Y124.290 E19.52723
G1 X100.000 Y124.789 E20.23410
G1 X93.594 Y123.944 E21.43309
G1 X87.626 Y121.467 E22.63230
G1 X84.639 Y119.170 E23.33143
G1 X80.134 Y114.394 E24.54980
G1 X77.071 Y108.715 E25.74721
G1 X75.752 Y103.781 E26.69494
G1 X75.255 Y100.000 E27.40266
G1 X76.098 Y93.585 E28.60327
G1 X78.569 Y87.607 E29.80366
G1 X80.860 Y84.616 E30.50298
G1 X81.475 Y84.033 E30.66017
G1 X82.144 Y84.630 F7800.000
G1 F1800
G1 X86.156 Y80.831 E31.68554
G1 X91.630 Y77.867 E32.84072
G1 X96.398 Y76.587 E33.75690
G1 X100.000 Y76.112 E34.43104
G1 X106.172 Y76.926 E35.58634
G1 X111.923 Y79.313 E36.74187
G1 X114.761 Y81.494 E37.40596
G1 X119.136 Y86.133 E38.58932
G1 X122.094 Y91.617 E39.74553
G1 X123.371 Y96.393 E40.66301
G1 X123.845 Y100.000 E41.33813
G1 X123.033 Y106.182 E42.49520
G1 X120.651 Y111.943 E43.65203
G1 X118.474 Y114.785 E44.31635
G1 X113.844 Y119.169 E45.49962
G1 X108.370 Y122.133 E46.65481
G1 X103.602 Y123.413 E47.57099
G1 X100.000 Y123.888 E48.24513
G1 X93.828 Y123.074 E49.40042
G1 X88.077 Y120.687 E50.55596
G1 X85.239 Y118.506 E51.22005
G1 X80.864 Y113.867 E52.40341
G1 X77.906 Y108.383 E53.55962
G1 X76.629 Y103.607 E54.47710
G1 X76.155 Y100.000 E55.15221
G1 X76.967 Y93.818 E56.30928
G1 X79.349 Y88.057 E57.46612
G1 X81.526 Y85.215 E58.13044
G1 X82.089 Y84.681 E58.27442
G1 X82.757 Y85.278 F7800.000
G1 F1800
G1 X86.684 Y81.560 E59.27797
G1 X91.963 Y78.702 E60.39187
G1 X96.573 Y77.464 E61.27771
G1 X100.000 Y77.012 E61.91912
G1 X105.939 Y77.796 E63.03072
G1 X111.473 Y80.092 E64.14258
G1 X114.160 Y82.158 E64.77162
G1 X118.406 Y86.660 E65.91998
G1 X121.258 Y91.948 E67.03498
G1 X122.493 Y96.567 E67.92222
G1 X122.945 Y100.000 E68.56473
G1 X122.163 Y105.949 E69.67826
G1 X119.871 Y111.494 E70.79153
G1 X117.809 Y114.186 E71.42086
G1 X113.316 Y118.440 E72.56910
G1 X108.037 Y121.298 E73.68300
G1 X103.427 Y122.536 E74.56884
G1 X100.000 Y122.988 E75.21026
G1 X94.061 Y122.204 E76.32185
G1 X88.527 Y119.908 E77.43371
G1 X85.840 Y117.842 E78.06276
G1 X81.594 Y113.340 E79.21111
G1 X78.742 Y108.052 E80.32612
G1 X77.507 Y103.433 E81.21336
G1 X77.055 Y100.000 E81.85586
G1 X77.837 Y94.051 E82.96939
G1 X80.129 Y88.506 E84.08266
G1 X82.191 Y85.814 E84.71199
G1 X82.703 Y85.329 E84.84277
G1 X82.620 Y84.797 F7800.000
G1 E82.84277 F2400.00000
G92 E0
G1 X81.323 Y82.729 F7800.000
G1 E2.00000 F2400.00000
G1 F1800
G1 X54.782 Y36.670 E11.86472
G1 X44.599 Y44.499 E14.24819
G1 X32.149 Y60.755 E18.04799
G1 X25.204 Y77.554 E21.42119
G1 X23.064 Y76.979 E21.83233
G1 X30.233 Y59.638 E25.31443
G1 X43.037 Y42.921 E29.22199
G1 X59.721 Y30.093 E33.12745
G1 X66.759 Y27.173 E34.54144
G1 X94.409 Y75.156 E44.81828
G1 X100.000 Y74.419 E45.86479
G1 X106.606 Y75.290 E47.10130
G1 X112.762 Y77.845 E48.33820
G1 X117.237 Y81.285 E49.38554
G1 X163.208 Y54.692 E59.24087
G1 X155.401 Y44.499 E61.62353
G1 X139.175 Y32.024 E65.42161
G1 X122.406 Y25.065 E68.79077
G1 X122.981 Y22.915 E69.20375
G1 X140.279 Y30.093 E72.67914
G1 X156.963 Y42.921 E76.58460
G1 X169.767 Y59.638 E80.49216
G1 X172.685 Y66.699 E81.90991
G1 X124.793 Y94.403 E92.17725
G1 X125.528 Y100.000 E93.22484
G1 X124.658 Y106.622 E94.46426
G1 X122.107 Y112.792 E95.70329
G1 X118.677 Y117.271 E96.75006
G1 X145.218 Y163.330 E106.61478
G1 X155.401 Y155.501 E108.99825
G1 X167.851 Y139.245 E112.79805
G1 X174.796 Y122.446 E116.17124
G1 X176.936 Y123.021 E116.58238
G1 X169.767 Y140.362 E120.06448
G1 X156.963 Y157.079 E123.97204
G1 X140.279 Y169.907 E127.87750
G1 X133.241 Y172.827 E129.29150
G1 X105.591 Y124.844 E139.56833
G1 X100.000 Y125.581 E140.61484
G1 X93.394 Y124.710 E141.85136
G1 X87.238 Y122.155 E143.08826
G1 X82.763 Y118.715 E144.13559
G1 X36.792 Y145.308 E153.99092
G1 X44.599 Y155.501 E156.37359
G1 X60.825 Y167.976 E160.17166
G1 X77.594 Y174.935 E163.54082
G1 X77.019 Y177.085 E163.95381
G1 X59.721 Y169.907 E167.42920
G1 X43.037 Y157.079 E171.33466
G1 X30.233 Y140.362 E175.24222
G1 X27.315 Y133.301 E176.65997
G1 X75.207 Y105.597 E186.92731
G1 X74.472 Y100.000 E187.97490
G1 X75.342 Y93.378 E189.21432
G1 X77.893 Y87.208 E190.45335
G1 X81.277 Y82.789 E191.48620
G1 X80.252 Y82.659 F7800.000
G1 F1800
G1 X54.517 Y37.999 E201.05121
G1 X45.236 Y45.135 E203.22363
G1 X32.929 Y61.205 E206.97984
G1 X25.730 Y78.619 E210.47670
G1 X21.851 Y77.578 E211.22196
G1 X29.453 Y59.189 E214.91452
G1 X42.399 Y42.285 E218.86569
G1 X59.271 Y29.314 E222.81478
G1 X67.141 Y26.048 E224.39611
G1 X94.884 Y74.193 E234.70763
G1 X100.000 Y73.518 E235.66517
G1 X106.840 Y74.420 E236.94538
G1 X113.213 Y77.065 E238.22596
G1 X117.307 Y80.213 E239.18422
G1 X161.881 Y54.428 E248.74009
G1 X154.764 Y45.135 E250.91238
G1 X138.724 Y32.803 E254.66681
G1 X121.342 Y25.589 E258.15925
G1 X122.382 Y21.700 E258.90647
G1 X140.729 Y29.314 E262.59281
G1 X157.601 Y42.285 E266.54190
G1 X170.547 Y59.189 E270.49306
G1 X173.809 Y67.080 E272.07766
G1 X125.755 Y94.877 E282.37949
G1 X126.428 Y100.000 E283.33829
G1 X125.528 Y106.855 E284.62125
G1 X122.887 Y113.242 E285.90384
G1 X119.748 Y117.341 E286.86192
G1 X145.483 Y162.001 E296.42693
G1 X154.764 Y154.865 E298.59935
G1 X167.071 Y138.795 E302.35556
G1 X174.270 Y121.381 E305.85241
G1 X178.149 Y122.422 E306.59768
G1 X170.547 Y140.811 E310.29024
G1 X157.601 Y157.715 E314.24140
G1 X140.729 Y170.686 E318.19050
G1 X132.859 Y173.952 E319.77183
G1 X105.116 Y125.807 E330.08334
G1 X100.000 Y126.482 E331.04089
G1 X93.160 Y125.580 E332.32110
G1 X86.787 Y122.935 E333.60167
G1 X82.693 Y119.787 E334.55993
G1 X38.119 Y145.572 E344.11581
G1 X45.236 Y154.865 E346.28810
G1 X61.276 Y167.197 E350.04253
G1 X78.658 Y174.411 E353.53497
G1 X77.618 Y178.300 E354.28219
G1 X59.271 Y170.686 E357.96853
G1 X42.399 Y157.715 E361.91762
G1 X29.453 Y140.811 E365.86879
G1 X26.191 Y132.920 E367.45338
G1 X74.245 Y105.123 E377.75522
G1 X73.572 Y100.000 E378.71401
G1 X74.472 Y93.145 E379.99697
G1 X77.113 Y86.758 E381.27957
G1 X80.206 Y82.719 E382.22372
G1 X79.181 Y82.589 F7800.000
G1 F1800
G1 X54.253 Y39.329 E391.48902
G1 X45.874 Y45.771 E393.45040
G1 X33.709 Y61.654 E397.16301
G1 X26.255 Y79.684 E400.78353
G1 X20.638 Y78.176 E401.86292
G1 X28.673 Y58.739 E405.76595
G1 X41.762 Y41.649 E409.76071
G1 X58.820 Y28.535 E413.75344
G1 X67.523 Y24.923 E415.50210
G1 X95.360 Y73.230 E425.84830
G1 X100.000 Y72.618 E426.71687
G1 X107.073 Y73.551 E428.04078
G1 X113.664 Y76.286 E429.36503
G1 X117.377 Y79.141 E430.23423
G1 X160.555 Y54.164 E439.49063
G1 X154.126 Y45.771 E441.45255
G1 X138.273 Y33.583 E445.16335
G1 X120.277 Y26.114 E448.77906
G1 X121.783 Y20.484 E449.86051
G1 X141.180 Y28.535 E453.75780
G1 X158.238 Y41.649 E457.75053
G1 X171.327 Y58.739 E461.74529
G1 X174.933 Y67.461 E463.49673
G1 X126.718 Y95.352 E473.83306
G1 X127.329 Y100.000 E474.70306
G1 X126.398 Y107.087 E476.02957
G1 X123.667 Y113.692 E477.35572
G1 X120.819 Y117.411 E478.22511
G1 X145.747 Y160.671 E487.49040
G1 X154.126 Y154.229 E489.45179
G1 X166.291 Y138.346 E493.16439
G1 X173.745 Y120.316 E496.78491
G1 X179.362 Y121.824 E497.86430
G1 X171.327 Y141.261 E501.76733
G1 X158.238 Y158.351 E505.76209
G1 X141.180 Y171.465 E509.75482
G1 X132.477 Y175.077 E511.50348
G1 X104.640 Y126.770 E521.84968
G1 X100.000 Y127.382 E522.71825
G1 X92.927 Y126.449 E524.04216
G1 X86.336 Y123.714 E525.36641
G1 X82.623 Y120.859 E526.23560
G1 X39.445 Y145.836 E535.49201
G1 X45.874 Y154.229 E537.45394
G1 X61.727 Y166.417 E541.16473
G1 X79.723 Y173.886 E544.78045
G1 X78.217 Y179.516 E545.86189
G1 X58.820 Y171.465 E549.75918
G1 X41.762 Y158.351 E553.75192
G1 X28.673 Y141.261 E557.74668
G1 X25.067 Y132.539 E559.49812
G1 X73.282 Y104.648 E569.83445
G1 X72.671 Y100.000 E570.70445
G1 X73.602 Y92.913 E572.03095
G1 X76.333 Y86.308 E573.35711
G1 X79.136 Y82.649 E574.21258
G1 X79.562 Y82.264 F7800.000
G1 E572.21258 F2400.00000
G92 E0
G1 X81.510 Y83.309 F7800.000
G1 E2.00000 F2400.00000
G1 F1800
G1 X81.914 Y82.861 E2.01041
G1 E0.01041 F2400.00000
G92 E0
G1 X91.187 Y76.391 F7800.000
G1 E2.00000 F2400.00000
G1 F1800
G1 X93.376 Y74.202 E2.57955
G1 X92.911 Y73.394 E2.75413
G1 X88.750 Y77.555 E3.85584
G1 X85.973 Y79.059 E4.44700
G1 X92.445 Y72.586 E6.16064
G1 X91.980 Y71.778 E6.33523
G1 X81.664 Y82.094 E9.06645
G1 X81.430 Y81.884 E9.12528
G1 X81.362 Y81.959 E9.14428
G1 X81.056 Y81.428 E9.25905
G1 X91.514 Y70.970 E12.02784
G1 X91.048 Y70.162 E12.20243
G1 X80.590 Y80.620 E14.97122
G1 X80.125 Y79.812 E15.14581
G1 X90.583 Y69.354 E17.91460
G1 X90.117 Y68.546 E18.08918
G1 X79.659 Y79.004 E20.85798
G1 X79.194 Y78.196 E21.03256
G1 X89.651 Y67.738 E23.80135
G1 X89.186 Y66.930 E23.97594
G1 X78.728 Y77.388 E26.74473
G1 X78.262 Y76.580 E26.91932
G1 X88.720 Y66.122 E29.68811
G1 X88.255 Y65.314 E29.86269
G1 X77.797 Y75.772 E32.63149
G1 X77.331 Y74.964 E32.80607
G1 X87.789 Y64.506 E35.57486
G1 X87.323 Y63.698 E35.74945
G1 X76.866 Y74.156 E38.51824
G1 X76.400 Y73.348 E38.69283
G1 X86.858 Y62.890 E41.46162
G1 X86.392 Y62.082 E41.63620
G1 X75.934 Y72.540 E44.40499
G1 X75.469 Y71.732 E44.57958
G1 X85.927 Y61.274 E47.34837
G1 X85.461 Y60.466 E47.52296
G1 X75.003 Y70.924 E50.29175
G1 X74.537 Y70.116 E50.46634
G1 X84.995 Y59.658 E53.23513
G1 X84.530 Y58.850 E53.40971
G1 X74.072 Y69.308 E56.17851
G1 X73.606 Y68.500 E56.35309
G1 X84.064 Y58.042 E59.12188
G1 X83.599 Y57.234 E59.29647
G1 X73.141 Y67.692 E62.06526
G1 X72.675 Y66.884 E62.23985
G1 X83.133 Y56.426 E65.00864
G1 X82.667 Y55.618 E65.18323
G1 X72.209 Y66.076 E67.95202
G1 X71.744 Y65.268 E68.12660
G1 X82.202 Y54.810 E70.89539
G1 X81.736 Y54.002 E71.06998
G1 X71.278 Y64.460 E73.83877
G1 X70.813 Y63.652 E74.01336
G1 X81.270 Y53.194 E76.78215
G1 X80.805 Y52.386 E76.95674
G1 X70.347 Y62.844 E79.72553
G1 X69.881 Y62.036 E79.90011
G1 X80.339 Y51.578 E82.66891
G1 X79.874 Y50.770 E82.84349
G1 X69.416 Y61.228 E85.61228
G1 X68.950 Y60.420 E85.78687
G1 X79.408 Y49.962 E88.55566
G1 X78.942 Y49.154 E88.73025
G1 X68.485 Y59.612 E91.49904
G1 X68.019 Y58.804 E91.67362
G1 X78.477 Y48.346 E94.44242
G1 X78.011 Y47.538 E94.61700
G1 X67.553 Y57.996 E97.38579
G1 X67.088 Y57.188 E97.56038
G1 X77.546 Y46.730 E100.32917
G1 X77.080 Y45.922 E100.50376
G1 X66.622 Y56.380 E103.27255
G1 X66.156 Y55.572 E103.44714
G1 X76.614 Y45.114 E106.21593
G1 X76.149 Y44.306 E106.39051
G1 X65.691 Y54.764 E109.15930
G1 X65.225 Y53.956 E109.33389
G1 X75.683 Y43.498 E112.10268
G1 X75.218 Y42.690 E112.27727
G1 X64.760 Y53.148 E115.04606
G1 X64.294 Y52.340 E115.22065
G1 X74.752 Y41.882 E117.98944
G1 X74.286 Y41.074 E118.16402
G1 X63.828 Y51.532 E120.93281
G1 X63.363 Y50.724 E121.10740
G1 X73.821 Y40.266 E123.87619
G1 X73.355 Y39.458 E124.05078
G1 X62.897 Y49.916 E126.81957
G1 X62.432 Y49.107 E126.99415
G1 X72.889 Y38.650 E129.76295
G1 X72.424 Y37.842 E129.93753
G1 X61.966 Y48.299 E132.70632
G1 X61.500 Y47.491 E132.88091
G1 X71.958 Y37.034 E135.64970
G1 X71.493 Y36.226 E135.82429
G1 X61.035 Y46.683 E138.59308
G1 X60.569 Y45.875 E138.76766
G1 X71.027 Y35.418 E141.53645
G1 X70.561 Y34.610 E141.71104
G1 X60.104 Y45.067 E144.47983
G1 X59.638 Y44.259 E144.65442
G1 X70.096 Y33.802 E147.42321
G1 X69.630 Y32.993 E147.59780
G1 X59.172 Y43.451 E150.36659
G1 X58.707 Y42.643 E150.54117
G1 X69.165 Y32.185 E153.30996
G1 X68.699 Y31.377 E153.48455
G1 X58.241 Y41.835 E156.25334
G1 X57.775 Y41.027 E156.42793
G1 X68.233 Y30.569 E159.19672
G1 X67.768 Y29.761 E159.37130
G1 X57.310 Y40.219 E162.14009
G1 X56.844 Y39.411 E162.31468
G1 X67.302 Y28.953 E165.08347
G1 X66.837 Y28.145 E165.25806
G1 X56.379 Y38.603 E168.02685
G1 X55.913 Y37.795 E168.20144
G1 X65.072 Y28.636 E170.62633
G1 X62.895 Y29.540 E171.06763
G1 X55.447 Y36.987 E173.03937
G1 X55.373 Y36.859 E173.06719
G1 X55.888 Y36.463 E173.18868
G1 X55.371 Y35.790 E173.34746
G1 X60.718 Y30.443 E174.76311
G1 X60.519 Y30.526 E174.80330
G1 X55.512 Y34.375 E175.98571
G1 X54.818 Y35.070 E176.16955
G1 E174.16955 F2400.00000
G92 E0
G1 X93.623 Y75.229 F7800.000
G1 E2.00000 F2400.00000
G1 F1800
G1 X92.928 Y75.924 E2.18384
G1 E0.18384 F2400.00000
G92 E0
G1 X54.584 Y35.433 F7800.000
G1 E2.00000 F2400.00000
G1 F1800
G1 X43.825 Y43.707 E5.39482
G1 X31.240 Y60.133 E10.57030
G1 X31.156 Y60.281 E10.61289
G1 X24.306 Y76.850 E15.09728
G1 E13.09728 F2400.00000
G92 E0
G1 X28.091 Y134.030 F7800.000
G1 E2.00000 F2400.00000
G1 F1800
G1 X28.786 Y133.335 E2.18845
G1 X31.883 Y131.544 E2.87516
G1 X28.473 Y134.954 E3.80068
G1 X28.855 Y135.877 E3.99251
G1 X34.980 Y129.752 E5.65502
G1 X38.078 Y127.960 E6.34173
G1 X29.237 Y136.801 E8.74122
G1 X29.619 Y137.725 E8.93306
G1 X41.175 Y126.169 E12.06954
G1 X44.272 Y124.377 E12.75624
G1 X30.001 Y138.649 E16.62971
G1 X30.382 Y139.572 E16.82154
G1 X47.370 Y122.585 E21.43199
G1 X50.467 Y120.794 E22.11870
G1 X30.812 Y140.449 E27.45331
G1 X31.378 Y141.188 E27.63204
G1 X53.564 Y119.002 E33.65361
G1 X56.661 Y117.210 E34.34031
G1 X31.944 Y141.928 E41.04882
G1 X32.510 Y142.667 E41.22755
G1 X59.759 Y115.418 E48.62301
G1 X62.856 Y113.627 E49.30972
G1 X33.077 Y143.406 E57.39212
G1 X33.643 Y144.146 E57.57085
G1 X65.953 Y111.835 E66.34021
G1 X69.051 Y110.043 E67.02692
G1 X34.209 Y144.885 E76.48322
G1 X34.504 Y145.270 E76.57633
G1 X35.899 Y144.202 E76.91344
G1 X36.028 Y144.371 E76.95436
