; generated by Slic3r 1.3.0 on 2021-07-12 at 16:47:09

; external perimeters extrusion width = 0.55mm (5.57mm^3/s)
; perimeters extrusion width = 0.58mm (11.78mm^3/s)
; infill extrusion width = 0.58mm (15.71mm^3/s)
; solid infill extrusion width = 0.58mm (3.93mm^3/s)
; top infill extrusion width = 0.58mm (2.95mm^3/s)

M107
M190 S65 ; set bed temperature and wait for it to be reached
M104 S205 ; set temperature
G28 ; home all axes
G1 Z5 F5000 ; lift nozzle

; Filament gcode

M109 S205 ; set temperature and wait for it to be reached
G21 ; set units to millimeters
G90 ; use absolute coordinates
M82 ; use absolute distances for extrusion
G92 E0
G1 Z0.500 F7800.000
G1 E-2.00000 F2400.00000
G92 E0
G1 X37.963 Y39.235 F7800.000
G1 E2.00000 F2400.00000
G1 F1800
G1 X39.235 Y37.963 E2.33388
G1 X55.804 Y25.250 E6.20939
G1 X57.362 Y24.350 E6.54329
G1 X66.215 Y20.683 E8.32146
G1 X68.280 Y20.182 E8.71573
G1 X120.133 Y15.857 E18.37149
G1 X123.343 Y16.358 E18.97450
G1 X142.638 Y24.350 E22.85000
G1 X144.196 Y25.250 E23.18390
G1 X160.765 Y37.963 E27.05939
G1 X162.037 Y39.235 E27.39330
G1 X174.750 Y55.804 E31.26882
G1 X175.650 Y57.362 E31.60270
G1 X179.317 Y66.215 E33.38087
G1 X179.818 Y68.280 E33.77514
G1 X184.143 Y120.133 E43.43090
G1 X183.642 Y123.343 E44.03391
G1 X175.650 Y142.638 E47.90942
G1 X174.750 Y144.196 E48.24331
G1 X162.037 Y160.765 E52.11881
G1 X160.765 Y162.037 E52.45270
G1 X144.196 Y174.750 E56.32820
G1 X142.638 Y175.650 E56.66204
G1 X133.785 Y179.317 E58.44028
G1 X131.720 Y179.818 E58.83455
G1 X79.867 Y184.143 E68.49031
G1 X76.657 Y183.642 E69.09332
G1 X57.362 Y175.650 E72.96881
G1 X55.804 Y174.750 E73.30270
G1 X39.235 Y162.037 E77.17821
G1 X37.963 Y160.765 E77.51212
G1 X25.250 Y144.196 E81.38761
G1 X24.350 Y142.638 E81.72152
G1 X20.683 Y133.785 E83.49968
G1 X20.182 Y131.720 E83.89396
G1 X15.857 Y79.867 E93.54972
G1 X16.358 Y76.657 E94.15273
G1 X24.350 Y57.362 E98.02823
G1 X25.250 Y55.804 E98.36213
G1 X37.917 Y39.295 E102.22371
G1 E100.22371 F2400.00000
G92 E0
G1 X56.368 Y38.857 F7800.000
G1 E2.00000 F2400.00000
G1 F1800
G1 X46.460 Y46.460 E4.31760
G1 X34.427 Y62.142 E7.98560
G1 X27.745 Y78.273 E11.22584
G1 X25.835 Y77.761 E11.59289
G1 X32.714 Y61.153 E14.92895
G1 X45.061 Y45.061 E18.69278
G1 X61.153 Y32.714 E22.45660
G1 X67.876 Y29.929 E23.80701
G1 X94.561 Y76.151 E33.71119
G1 X100.000 Y75.435 E34.72913
G1 X106.358 Y76.272 E35.91917
G1 X112.283 Y78.726 E37.10922
G1 X116.635 Y82.065 E38.12716
G1 X161.143 Y56.368 E47.66429
G1 X153.540 Y46.460 E49.98189
G1 X137.858 Y34.427 E53.64990
G1 X121.727 Y27.745 E56.89014
G1 X122.239 Y25.835 E57.25719
G1 X138.847 Y32.714 E60.59325
G1 X154.939 Y45.061 E64.35707
G1 X167.286 Y61.153 E68.12089
G1 X170.071 Y67.876 E69.47130
G1 X123.849 Y94.561 E79.37548
G1 X124.565 Y100.000 E80.39343
G1 X123.728 Y106.358 E81.58347
G1 X121.274 Y112.283 E82.77351
G1 X117.935 Y116.635 E83.79146
G1 X143.632 Y161.143 E93.32859
G1 X153.540 Y153.540 E95.64618
G1 X165.573 Y137.858 E99.31419
G1 X172.255 Y121.727 E102.55443
G1 X174.165 Y122.239 E102.92148
G1 X167.286 Y138.847 E106.25754
G1 X154.939 Y154.939 E110.02136
G1 X138.847 Y167.286 E113.78519
G1 X132.124 Y170.071 E115.13559
G1 X105.439 Y123.849 E125.03977
G1 X100.000 Y124.565 E126.05772
G1 X93.642 Y123.728 E127.24776
G1 X87.717 Y121.274 E128.43780
G1 X83.365 Y117.935 E129.45575
G1 X38.857 Y143.632 E138.99288
G1 X46.460 Y153.540 E141.31048
G1 X62.142 Y165.573 E144.97848
G1 X78.273 Y172.255 E148.21873
G1 X77.761 Y174.165 E148.58578
G1 X61.153 Y167.286 E151.92184
G1 X45.061 Y154.939 E155.68566
G1 X32.714 Y138.847 E159.44948
G1 X29.929 Y132.124 E160.79989
G1 X76.151 Y105.439 E170.70407
G1 X75.435 Y100.000 E171.72202
G1 X76.272 Y93.642 E172.91206
G1 X78.726 Y87.717 E174.10210
G1 X82.065 Y83.365 E175.12005
G1 X56.406 Y38.922 E184.64326
G1 X56.104 Y40.185 F7800.000
G1 F1800
G1 X47.097 Y47.097 E186.75015
G1 X35.207 Y62.592 E190.37454
G1 X28.270 Y79.338 E193.73825
G1 X24.620 Y78.360 E194.43947
G1 X31.934 Y60.702 E197.98624
G1 X44.425 Y44.425 E201.79368
G1 X60.702 Y31.934 E205.60112
G1 X68.257 Y28.805 E207.11862
G1 X95.036 Y75.188 E217.05739
G1 X100.000 Y74.534 E217.98646
G1 X106.591 Y75.402 E219.22012
G1 X112.733 Y77.946 E220.45378
G1 X116.705 Y80.994 E221.38284
G1 X159.815 Y56.104 E230.62039
G1 X152.903 Y47.097 E232.72728
G1 X137.408 Y35.207 E236.35166
G1 X120.662 Y28.270 E239.71537
G1 X121.640 Y24.620 E240.41660
G1 X139.298 Y31.934 E243.96337
G1 X155.575 Y44.425 E247.77081
G1 X168.066 Y60.702 E251.57825
G1 X171.195 Y68.257 E253.09574
G1 X124.812 Y95.036 E263.03451
G1 X125.466 Y100.000 E263.96358
G1 X124.598 Y106.591 E265.19724
G1 X122.054 Y112.733 E266.43090
G1 X119.006 Y116.705 E267.35997
G1 X143.896 Y159.815 E276.59751
G1 X152.903 Y152.903 E278.70440
G1 X164.793 Y137.408 E282.32879
G1 X171.730 Y120.662 E285.69250
G1 X175.380 Y121.640 E286.39372
G1 X168.066 Y139.298 E289.94049
G1 X155.575 Y155.575 E293.74793
G1 X139.298 Y168.066 E297.55537
G1 X131.743 Y171.195 E299.07287
G1 X104.964 Y124.812 E309.01164
G1 X100.000 Y125.466 E309.94071
G1 X93.409 Y124.598 E311.17437
G1 X87.267 Y122.054 E312.40802
G1 X83.295 Y119.006 E313.33709
G1 X40.185 Y143.896 E322.57464
G1 X47.097 Y152.903 E324.68153
G1 X62.592 Y164.793 E328.30591
G1 X79.338 Y171.730 E331.66962
G1 X78.360 Y175.380 E332.37085
G1 X60.702 Y168.066 E335.91762
G1 X44.425 Y155.575 E339.72506
G1 X31.934 Y139.298 E343.53250
G1 X28.805 Y131.743 E345.05000
G1 X75.188 Y104.964 E354.98877
G1 X74.534 Y100.000 E355.91783
G1 X75.402 Y93.409 E357.15149
G1 X77.946 Y87.267 E358.38515
G1 X80.994 Y83.295 E359.31422
G1 X56.142 Y40.250 E368.53785
G1 X55.840 Y41.513 F7800.000
G1 F1800
G1 X47.733 Y47.733 E370.43403
G1 X35.987 Y63.042 E374.01480
G1 X28.795 Y80.403 E377.50198
G1 X23.406 Y78.959 E378.53738
G1 X31.155 Y60.252 E382.29485
G1 X43.788 Y43.788 E386.14591
G1 X60.252 Y31.155 E389.99698
G1 X68.639 Y27.681 E391.68156
G1 X95.511 Y74.225 E401.65492
G1 X100.000 Y73.634 E402.49510
G1 X106.824 Y74.532 E403.77238
G1 X113.183 Y77.166 E405.04966
G1 X116.775 Y79.922 E405.88985
G1 X158.487 Y55.840 E414.82780
G1 X152.267 Y47.733 E416.72399
G1 X136.958 Y35.987 E420.30475
G1 X119.597 Y28.795 E423.79193
G1 X121.041 Y23.406 E424.82734
G1 X139.748 Y31.155 E428.58481
G1 X156.212 Y43.788 E432.43587
G1 X168.845 Y60.252 E436.28693
G1 X172.319 Y68.639 E437.97151
G1 X125.775 Y95.511 E447.94487
G1 X126.366 Y100.000 E448.78506
G1 X125.468 Y106.824 E450.06234
G1 X122.834 Y113.183 E451.33962
G1 X120.078 Y116.775 E452.17980
G1 X144.160 Y158.487 E461.11776
G1 X152.267 Y152.267 E463.01394
G1 X164.013 Y136.958 E466.59471
G1 X171.204 Y119.597 E470.08189
G1 X176.594 Y121.041 E471.11729
G1 X168.845 Y139.748 E474.87477
G1 X156.212 Y156.212 E478.72583
G1 X139.748 Y168.845 E482.57689
G1 X131.361 Y172.319 E484.26147
G1 X104.489 Y125.775 E494.23483
G1 X100.000 Y126.366 E495.07502
G1 X93.176 Y125.468 E496.35230
G1 X86.817 Y122.834 E497.62957
G1 X83.225 Y120.078 E498.46976
G1 X41.513 Y144.160 E507.40772
G1 X47.733 Y152.267 E509.30390
G1 X63.042 Y164.013 E512.88467
G1 X80.403 Y171.204 E516.37185
G1 X78.959 Y176.594 E517.40725
G1 X60.252 Y168.845 E521.16473
G1 X43.788 Y156.212 E525.01579
G1 X31.155 Y139.748 E528.86685
G1 X27.681 Y131.361 E530.55143
G1 X74.225 Y104.489 E540.52479
G1 X73.634 Y100.000 E541.36498
G1 X74.532 Y93.176 E542.64226
G1 X77.166 Y86.817 E543.91953
G1 X79.922 Y83.225 E544.75972
G1 X55.877 Y41.578 E553.68376
G1 X55.565 Y41.096 F7800.000
G1 E551.68376 F2400.00000
G92 E0
G1 X56.231 Y37.727 F7800.000
G1 E2.00000 F2400.00000
G1 F1800
G1 X45.762 Y45.762 E4.63645
G1 X33.614 Y61.591 E8.62268
G1 X33.544 Y61.712 E8.65054
G1 X26.962 Y77.601 E12.08639
G1 E10.08639 F2400.00000
G92 E0
G1 X57.234 Y36.765 F7800.000
G1 E2.00000 F2400.00000
G1 F1800
G1 X56.539 Y37.461 E2.18360
G1 X57.090 Y38.179 E2.35255
G1 X62.244 Y33.025 E3.71270
G1 X64.411 Y32.127 E4.15040
G1 X57.155 Y39.383 E6.06519
G1 X57.620 Y40.188 E6.23860
G1 X66.578 Y31.230 E8.60266
G1 X67.841 Y30.707 E8.85773
G1 X68.035 Y31.042 E8.93009
G1 X58.084 Y40.993 E11.55596
G1 X58.549 Y41.798 E11.72937
G1 X68.500 Y31.847 E14.35524
G1 X68.964 Y32.652 E14.52865
G1 X59.014 Y42.603 E17.15452
G1 X59.478 Y43.407 E17.32793
G1 X69.429 Y33.457 E19.95380
G1 X69.894 Y34.262 E20.12721
G1 X59.943 Y44.212 E22.75308
G1 X60.408 Y45.017 E22.92649
G1 X70.358 Y35.066 E25.55237
G1 X70.823 Y35.871 E25.72577
G1 X60.872 Y45.822 E28.35165
G1 X61.337 Y46.627 E28.52506
G1 X71.288 Y36.676 E31.15093
G1 X71.752 Y37.481 E31.32434
G1 X61.802 Y47.431 E33.95021
G1 X62.266 Y48.236 E34.12362
G1 X72.217 Y38.286 E36.74949
G1 X72.682 Y39.090 E36.92290
G1 X62.731 Y49.041 E39.54877
G1 X63.196 Y49.846 E39.72218
G1 X73.146 Y39.895 E42.34805
G1 X73.611 Y40.700 E42.52146
G1 X63.660 Y50.651 E45.14733
G1 X64.125 Y51.455 E45.32074
G1 X74.076 Y41.505 E47.94662
G1 X74.540 Y42.310 E48.12002
G1 X64.590 Y52.260 E50.74590
G1 X65.054 Y53.065 E50.91931
G1 X75.005 Y43.115 E53.54518
G1 X75.470 Y43.919 E53.71859
G1 X65.519 Y53.870 E56.34446
G1 X65.984 Y54.675 E56.51787
G1 X75.934 Y44.724 E59.14374
G1 X76.399 Y45.529 E59.31715
G1 X66.448 Y55.480 E61.94302
G1 X66.913 Y56.284 E62.11643
G1 X76.864 Y46.334 E64.74230
G1 X77.328 Y47.139 E64.91571
G1 X67.378 Y57.089 E67.54158
G1 X67.842 Y57.894 E67.71499
G1 X77.793 Y47.943 E70.34086
G1 X78.258 Y48.748 E70.51427
G1 X68.307 Y58.699 E73.14015
G1 X68.772 Y59.504 E73.31356
G1 X78.722 Y49.553 E75.93943
G1 X79.187 Y50.358 E76.11284
G1 X69.236 Y60.308 E78.73871
G1 X69.701 Y61.113 E78.91212
G1 X79.651 Y51.163 E81.53799
G1 X80.116 Y51.967 E81.71140
G1 X70.166 Y61.918 E84.33727
G1 X70.630 Y62.723 E84.51068
G1 X80.581 Y52.772 E87.13655
G1 X81.045 Y53.577 E87.30996
G1 X71.095 Y63.528 E89.93583
G1 X71.560 Y64.332 E90.10924
G1 X81.510 Y54.382 E92.73511
G1 X81.975 Y55.187 E92.90852
G1 X72.024 Y65.137 E95.53439
G1 X72.489 Y65.942 E95.70780
G1 X82.439 Y55.991 E98.33367
G1 X82.904 Y56.796 E98.50708
G1 X72.954 Y66.747 E101.13295
G1 X73.418 Y67.552 E101.30636
G1 X83.369 Y57.601 E103.93224
G1 X83.833 Y58.406 E104.10565
G1 X73.883 Y68.356 E106.73152
G1 X74.348 Y69.161 E106.90493
G1 X84.298 Y59.211 E109.53080
G1 X84.763 Y60.016 E109.70421
G1 X74.812 Y69.966 E112.33008
G1 X75.277 Y70.771 E112.50349
G1 X85.227 Y60.820 E115.12936
G1 X85.692 Y61.625 E115.30277
G1 X75.741 Y71.576 E117.92864
G1 X76.206 Y72.381 E118.10205
G1 X86.157 Y62.430 E120.72792
G1 X86.621 Y63.235 E120.90133
G1 X76.671 Y73.185 E123.52720
G1 X77.135 Y73.990 E123.70061
G1 X87.086 Y64.040 E126.32648
G1 X87.551 Y64.844 E126.49989
G1 X77.600 Y74.795 E129.12576
G1 X78.065 Y75.600 E129.29917
G1 X88.015 Y65.649 E131.92504
G1 X88.480 Y66.454 E132.09845
G1 X78.529 Y76.405 E134.72432
G1 X78.994 Y77.209 E134.89773
G1 X88.945 Y67.259 E137.52360
G1 X89.409 Y68.064 E137.69701
G1 X79.459 Y78.014 E140.32288
G1 X79.923 Y78.819 E140.49629
G1 X89.874 Y68.868 E143.12216
G1 X90.339 Y69.673 E143.29557
G1 X80.388 Y79.624 E145.92144
G1 X80.853 Y80.429 E146.09485
G1 X90.803 Y70.478 E148.72072
G1 X91.268 Y71.283 E148.89413
G1 X81.317 Y81.233 E151.52000
G1 X81.782 Y82.038 E151.69341
G1 X91.733 Y72.088 E154.31929
G1 X92.197 Y72.893 E154.49269
G1 X82.247 Y82.843 E157.11857
G1 X82.711 Y83.648 E157.29197
G1 X92.662 Y73.697 E159.91784
G1 X93.127 Y74.502 E160.09125
G1 X79.304 Y88.325 E163.73891
G1 X79.158 Y88.515 E163.78359
G1 X78.292 Y90.606 E164.20605
G1 X93.591 Y75.307 E168.24342
G1 X94.056 Y76.112 E168.41683
G1 X77.394 Y92.773 E172.81370
G1 X76.794 Y94.222 E173.10632
G1 X76.730 Y94.707 E173.19752
G1 X94.707 Y76.730 E177.94136
G1 X96.169 Y76.538 E178.21652
G1 X76.538 Y96.169 E183.39694
G1 X76.345 Y97.631 E183.67209
G1 X97.631 Y76.345 E189.28910
G1 X99.093 Y76.153 E189.56425
G1 X76.153 Y99.093 E195.61784
G1 X75.988 Y100.347 E195.85397
G1 X76.009 Y100.506 E195.88391
G1 X100.506 Y76.009 E202.34862
G1 X101.628 Y76.156 E202.55975
G1 X76.156 Y101.628 E209.28152
G1 X76.304 Y102.750 E209.49265
G1 X102.750 Y76.304 E216.47147
G1 X103.872 Y76.452 E216.68260
G1 X76.452 Y103.872 E223.91848
G1 X76.599 Y104.993 E224.12961
G1 X104.993 Y76.599 E231.62255
G1 X106.115 Y76.747 E231.83368
G1 X76.747 Y106.115 E239.58367
G1 E237.58367 F2400.00000
G92 E0
G1 X92.916 Y122.952 F7800.000
G1 E2.00000 F2400.00000
G1 F1800
G1 X155.165 Y60.704 E18.42691
G1 X152.161 Y62.438 E19.07409
G1 X92.018 Y122.581 E34.94526
G1 X91.121 Y122.209 E35.12656
G1 X149.158 Y64.172 E50.44199
G1 X146.154 Y65.906 E51.08916
G1 X90.223 Y121.837 E65.84885
G1 X89.325 Y121.465 E66.03015
G1 X143.150 Y67.640 E80.23410
G1 X140.147 Y69.374 E80.88128
G1 X88.428 Y121.093 E94.52948
G1 X87.820 Y120.842 E94.65217
G1 X87.588 Y120.664 E94.70679
G1 X137.143 Y71.109 E107.78395
G1 X134.140 Y72.843 E108.43113
G1 X86.870 Y120.112 E120.90522
G1 X86.151 Y119.561 E121.07417
G1 X131.136 Y74.577 E132.94519
G1 X128.132 Y76.311 E133.59237
G1 X85.433 Y119.010 E144.86032
G1 X84.715 Y118.459 E145.02927
G1 X125.129 Y78.045 E155.69415
G1 X122.125 Y79.779 E156.34132
G1 X83.997 Y117.908 E166.40313
G1 X83.278 Y117.357 E166.57208
G1 X119.122 Y81.513 E176.03082
G1 X116.912 Y82.789 E176.50699
G1 X116.722 Y82.644 E176.55163
G1 X80.879 Y118.486 E186.01026
G1 X77.875 Y120.221 E186.65744
G1 X116.004 Y82.092 E196.71915
G1 X115.285 Y81.541 E196.88809
G1 X74.872 Y121.955 E207.55287
G1 X71.868 Y123.689 E208.20004
G1 X114.567 Y80.990 E219.46789
G1 X113.849 Y80.439 E219.63684
G1 X68.865 Y125.423 E231.50776
G1 X65.861 Y127.157 E232.15493
G1 X113.130 Y79.888 E244.62892
G1 X112.412 Y79.337 E244.79787
G1 X62.857 Y128.891 E257.87493
G1 X59.854 Y130.625 E258.52210
G1 X111.572 Y78.907 E272.17021
G1 X110.675 Y78.535 E272.35151
G1 X56.850 Y132.359 E286.55536
G1 X53.847 Y134.094 E287.20253
G1 X109.777 Y78.163 E301.96212
G1 X108.879 Y77.791 E302.14342
G1 X50.843 Y135.828 E317.45875
G1 X47.839 Y137.562 E318.10593
G1 X107.982 Y77.419 E333.97700
G1 X107.084 Y77.048 E334.15830
G1 X44.836 Y139.296 E350.58512
G1 X41.832 Y141.030 E351.23229
G1 X77.071 Y105.791 E360.53157
G1 X74.068 Y107.525 E361.17875
G1 X38.829 Y142.764 E370.47803
G1 X38.352 Y143.039 E370.58078
G1 X37.968 Y142.539 E370.69840
G1 X37.177 Y143.147 E370.88452
G1 X71.064 Y109.259 E379.82710
G1 X68.060 Y110.993 E380.47428
G1 X36.257 Y142.797 E388.86704
G1 X35.705 Y142.079 E389.03599
G1 X65.057 Y112.728 E396.78157
G1 X62.053 Y114.462 E397.42875
G1 X35.154 Y141.361 E404.52716
G1 X34.603 Y140.642 E404.69611
G1 X59.050 Y116.196 E411.14734
G1 X56.046 Y117.930 E411.79452
G1 X34.052 Y139.924 E417.59858
G1 X33.501 Y139.206 E417.76753
G1 X53.043 Y119.664 E422.92442
G1 X50.039 Y121.398 E423.57159
G1 X33.014 Y138.423 E428.06438
G1 X32.642 Y137.526 E428.24568
G1 X47.035 Y123.132 E432.04396
G1 X44.032 Y124.866 E432.69113
G1 X32.270 Y136.628 E435.79491
G1 X31.898 Y135.730 E435.97621
G1 X41.028 Y126.601 E438.38549
G1 X38.025 Y128.335 E439.03266
G1 X31.527 Y134.833 E440.74743
G1 X31.155 Y133.935 E440.92873
G1 X35.021 Y130.069 E441.94900
G1 X32.017 Y131.803 E442.59617
G1 X30.783 Y133.037 E442.92194
G1 X30.707 Y132.853 E442.95914
G1 X31.323 Y132.497 E443.09196
G1 E441.09196 F2400.00000
G92 E0
G1 X122.559 Y94.579 F7800.000
G1 E2.00000 F2400.00000
G1 F1800
G1 X122.539 Y94.434 E2.02741
G1 X122.929 Y94.209 E2.11141
G1 X158.168 Y58.970 E11.41070
G1 X161.172 Y57.236 E12.05787
G1 X125.933 Y92.475 E21.35716
G1 X128.936 Y90.740 E22.00433
G1 X162.824 Y56.853 E30.94704
G1 X163.234 Y56.538 E31.04332
G1 X163.743 Y57.203 E31.19959
G1 X131.940 Y89.006 E39.59223
G1 X134.944 Y87.272 E40.23941
G1 X164.295 Y57.921 E47.98488
G1 X164.846 Y58.639 E48.15383
G1 X137.947 Y85.538 E55.25213
G1 X140.951 Y83.804 E55.89930
G1 X165.397 Y59.358 E62.35042
G1 X165.948 Y60.076 E62.51937
G1 X143.954 Y82.070 E68.32332
G1 X146.958 Y80.336 E68.97050
G1 X166.499 Y60.794 E74.12727
