; generated by Slic3r 1.3.0 on 2021-07-13 at 23:37:58

; external perimeters extrusion width = 0.55mm (5.57mm^3/s)
; perimeters extrusion width = 0.58mm (11.78mm^3/s)
; infill extrusion width = 0.58mm (15.71mm^3/s)
; solid infill extrusion width = 0.58mm (3.93mm^3/s)
; top infill extrusion width = 0.58mm (2.95mm^3/s)

M107
M190 S65 ; set bed temperature and wait for it to be reached
M104 S205 ; set temperature
G28 ; home all axes
G1 Z5 F5000 ; lift nozzle

; Filament gcode

M109 S205 ; set temperature and wait for it to be reached
G21 ; set units to millimeters
G90 ; use absolute coordinates
M82 ; use absolute distances for extrusion
G92 E0
G1 Z0.500 F7800.000
G1 E-2.00000 F2400.00000
G92 E0
G1 X35.933 Y37.101 F7800.000
G1 E2.00000 F2400.00000
G1 F1800
G1 X37.204 Y35.828 E2.33391
G1 X54.366 Y22.634 E6.35108
G1 X55.925 Y21.732 E6.68531
G1 X75.911 Y13.438 E10.70075
G1 X79.127 Y12.935 E11.30480
G1 X132.837 Y17.424 E21.30657
G1 X134.905 Y17.926 E21.70150
G1 X144.075 Y21.732 E23.54388
G1 X145.634 Y22.634 E23.87810
G1 X162.796 Y35.828 E27.89529
G1 X164.067 Y37.101 E28.22918
G1 X177.236 Y54.296 E32.24836
G1 X178.134 Y55.854 E32.58196
G1 X186.412 Y75.878 E36.60287
G1 X186.911 Y79.083 E37.20483
G1 X182.431 Y132.897 E47.22559
G1 X181.932 Y134.958 E47.61920
G1 X178.134 Y144.146 E49.46409
G1 X177.236 Y145.704 E49.79768
G1 X164.067 Y162.899 E53.81687
G1 X162.796 Y164.172 E54.15077
G1 X145.634 Y177.366 E58.16796
G1 X144.075 Y178.268 E58.50217
G1 X124.089 Y186.562 E62.51763
G1 X120.873 Y187.065 E63.12167
G1 X67.163 Y182.576 E73.12343
G1 X65.095 Y182.074 E73.51836
G1 X55.925 Y178.268 E75.36078
G1 X54.366 Y177.366 E75.69497
G1 X37.204 Y164.172 E79.71214
G1 X35.933 Y162.899 E80.04605
G1 X22.764 Y145.704 E84.06523
G1 X21.866 Y144.146 E84.39882
G1 X13.588 Y124.122 E88.41973
G1 X13.089 Y120.917 E89.02170
G1 X17.569 Y67.103 E99.04246
G1 X18.068 Y65.042 E99.43606
G1 X21.866 Y55.854 E101.28096
G1 X22.764 Y54.296 E101.61455
G1 X35.887 Y37.161 E105.61981
G1 E103.61981 F2400.00000
G92 E0
G1 X97.594 Y97.590 F7800.000
G1 E2.00000 F2400.00000
G1 F1800
G1 X98.323 Y97.032 E2.17024
G1 X99.179 Y96.703 E2.34060
G1 X100.003 Y96.595 E2.49474
G1 X100.884 Y96.712 E2.65969
G1 X101.705 Y97.053 E2.82465
G1 X102.410 Y97.594 E2.98960
G1 X102.950 Y98.300 E3.15456
G1 X103.290 Y99.121 E3.31951
G1 X103.405 Y100.003 E3.48447
G1 X103.288 Y100.884 E3.64943
G1 X102.937 Y101.731 E3.81967
G1 X102.359 Y102.445 E3.99003
G1 X101.700 Y102.950 E4.14416
G1 X100.852 Y103.301 E4.31441
G1 X99.939 Y103.397 E4.48476
G1 X99.116 Y103.288 E4.63889
G1 X98.295 Y102.947 E4.80385
G1 X97.590 Y102.406 E4.96881
G1 X97.050 Y101.700 E5.13376
G1 X96.710 Y100.879 E5.29872
G1 X96.595 Y99.997 E5.46368
G1 X96.712 Y99.116 E5.62863
G1 X97.053 Y98.295 E5.79359
G1 X97.549 Y97.650 E5.94462
G1 X98.230 Y98.227 F7800.000
G1 F1800
G1 X98.763 Y97.819 E6.06918
G1 X99.401 Y97.574 E6.19591
G1 X100.002 Y97.495 E6.30849
G1 X100.650 Y97.581 E6.42982
G1 X101.254 Y97.832 E6.55116
G1 X101.773 Y98.230 E6.67250
G1 X102.170 Y98.749 E6.79384
G1 X102.420 Y99.354 E6.91517
G1 X102.505 Y100.002 E7.03651
G1 X102.419 Y100.650 E7.15785
G1 X102.161 Y101.270 E7.28241
G1 X101.732 Y101.801 E7.40914
G1 X101.251 Y102.170 E7.52171
G1 X100.630 Y102.427 E7.64627
G1 X99.951 Y102.499 E7.77300
G1 X99.350 Y102.419 E7.88557
G1 X98.746 Y102.168 E8.00691
G1 X98.227 Y101.770 E8.12825
G1 X97.830 Y101.251 E8.24958
G1 X97.580 Y100.646 E8.37092
G1 X97.495 Y99.998 E8.49226
G1 X97.581 Y99.350 E8.61360
G1 X97.832 Y98.746 E8.73494
G1 X98.185 Y98.287 E8.84235
G1 X98.867 Y98.865 F7800.000
G1 F1800
G1 X99.204 Y98.606 E8.92123
G1 X99.622 Y98.445 E9.00433
G1 X100.001 Y98.396 E9.07535
G1 X100.417 Y98.451 E9.15307
G1 X100.803 Y98.611 E9.23078
G1 X101.135 Y98.867 E9.30850
G1 X101.390 Y99.199 E9.38622
G1 X101.550 Y99.586 E9.46394
G1 X101.604 Y100.001 E9.54166
G1 X101.549 Y100.417 E9.61938
G1 X101.386 Y100.809 E9.69825
G1 X101.105 Y101.157 E9.78136
G1 X100.801 Y101.390 E9.85237
G1 X100.408 Y101.552 E9.93125
G1 X99.963 Y101.600 E10.01435
G1 X99.583 Y101.549 E10.08536
G1 X99.197 Y101.389 E10.16308
G1 X98.865 Y101.133 E10.24080
G1 X98.610 Y100.801 E10.31852
G1 X98.450 Y100.414 E10.39624
G1 X98.396 Y99.999 E10.47396
G1 X98.451 Y99.583 E10.55168
G1 X98.611 Y99.197 E10.62940
G1 X98.821 Y98.924 E10.69320
G1 X98.867 Y98.865 F7800.000
G1 E8.69320 F2400.00000
G92 E0
G1 X82.763 Y81.285 F7800.000
G1 E2.00000 F2400.00000
G1 F1800
G1 X87.238 Y77.845 E3.04733
G1 X93.394 Y75.290 E4.28423
G1 X100.000 Y74.419 E5.52075
G1 X105.591 Y75.156 E6.56726
G1 X133.241 Y27.173 E16.84409
G1 X140.279 Y30.093 E18.25809
G1 X156.963 Y42.921 E22.16354
G1 X169.767 Y59.638 E26.07111
G1 X176.936 Y76.979 E29.55321
G1 X174.796 Y77.554 E29.96435
G1 X167.851 Y60.755 E33.33754
G1 X155.401 Y44.499 E37.13735
G1 X145.218 Y36.670 E39.52081
G1 X118.677 Y82.729 E49.38554
G1 X122.107 Y87.208 E50.43230
G1 X124.658 Y93.378 E51.67133
G1 X125.528 Y100.000 E52.91075
G1 X124.793 Y105.597 E53.95834
G1 X172.685 Y133.301 E64.22568
G1 X169.767 Y140.362 E65.64343
G1 X156.963 Y157.079 E69.55099
G1 X140.279 Y169.907 E73.45645
G1 X122.981 Y177.085 E76.93184
G1 X122.406 Y174.935 E77.34483
G1 X139.175 Y167.976 E80.71399
G1 X155.401 Y155.501 E84.51206
G1 X163.208 Y145.308 E86.89472
G1 X117.237 Y118.715 E96.75006
G1 X112.762 Y122.155 E97.79739
G1 X106.606 Y124.710 E99.03429
G1 X100.000 Y125.581 E100.27080
G1 X94.409 Y124.844 E101.31731
G1 X66.759 Y172.827 E111.59415
G1 X59.721 Y169.907 E113.00815
G1 X43.037 Y157.079 E116.91360
G1 X30.233 Y140.362 E120.82117
G1 X23.064 Y123.021 E124.30327
G1 X25.204 Y122.446 E124.71440
G1 X32.149 Y139.245 E128.08760
G1 X44.599 Y155.501 E131.88740
G1 X54.782 Y163.330 E134.27087
G1 X81.323 Y117.271 E144.13559
G1 X77.893 Y112.792 E145.18236
G1 X75.342 Y106.622 E146.42139
G1 X74.472 Y100.000 E147.66081
G1 X75.207 Y94.403 E148.70839
G1 X27.315 Y66.699 E158.97574
G1 X30.233 Y59.638 E160.39348
G1 X43.037 Y42.921 E164.30105
G1 X59.721 Y30.093 E168.20650
G1 X77.019 Y22.915 E171.68190
G1 X77.594 Y25.065 E172.09488
G1 X60.825 Y32.024 E175.46404
G1 X44.599 Y44.499 E179.26211
G1 X36.792 Y54.692 E181.64478
G1 X82.698 Y81.247 E191.48620
G1 X82.693 Y80.213 F7800.000
G1 F1800
G1 X86.787 Y77.065 E192.44446
G1 X93.160 Y74.420 E193.72504
G1 X100.000 Y73.518 E195.00525
G1 X105.116 Y74.193 E195.96279
G1 X132.859 Y26.048 E206.27431
G1 X140.729 Y29.314 E207.85563
G1 X157.601 Y42.285 E211.80473
G1 X170.547 Y59.189 E215.75589
G1 X178.149 Y77.578 E219.44846
G1 X174.270 Y78.619 E220.19372
G1 X167.071 Y61.205 E223.69058
G1 X154.764 Y45.135 E227.44678
G1 X145.483 Y37.999 E229.61921
G1 X119.748 Y82.659 E239.18422
G1 X122.887 Y86.758 E240.14229
G1 X125.528 Y93.145 E241.42488
G1 X126.428 Y100.000 E242.70785
G1 X125.755 Y105.123 E243.66664
G1 X173.809 Y132.920 E253.96847
G1 X170.547 Y140.811 E255.55307
G1 X157.601 Y157.715 E259.50423
G1 X140.729 Y170.686 E263.45333
G1 X122.382 Y178.300 E267.13967
G1 X121.342 Y174.411 E267.88688
G1 X138.724 Y167.197 E271.37932
G1 X154.764 Y154.865 E275.13375
G1 X161.881 Y145.572 E277.30605
G1 X117.307 Y119.787 E286.86192
G1 X113.213 Y122.935 E287.82018
G1 X106.840 Y125.580 E289.10076
G1 X100.000 Y126.482 E290.38097
G1 X94.884 Y125.807 E291.33851
G1 X67.141 Y173.952 E301.65003
G1 X59.271 Y170.686 E303.23135
G1 X42.399 Y157.715 E307.18045
G1 X29.453 Y140.811 E311.13161
G1 X21.851 Y122.422 E314.82418
G1 X25.730 Y121.381 E315.56944
G1 X32.929 Y138.795 E319.06629
G1 X45.236 Y154.865 E322.82250
G1 X54.517 Y162.001 E324.99492
G1 X80.252 Y117.341 E334.55993
G1 X77.113 Y113.242 E335.51801
G1 X74.472 Y106.855 E336.80060
G1 X73.572 Y100.000 E338.08356
G1 X74.245 Y94.877 E339.04236
G1 X26.191 Y67.080 E349.34420
G1 X29.453 Y59.189 E350.92879
G1 X42.399 Y42.285 E354.87995
G1 X59.271 Y29.314 E358.82905
G1 X77.618 Y21.700 E362.51539
G1 X78.658 Y25.589 E363.26260
G1 X61.276 Y32.803 E366.75504
G1 X45.236 Y45.135 E370.50947
G1 X38.119 Y54.428 E372.68177
G1 X82.628 Y80.175 E382.22372
G1 X82.623 Y79.141 F7800.000
G1 F1800
G1 X86.336 Y76.286 E383.09291
G1 X92.927 Y73.551 E384.41717
G1 X100.000 Y72.618 E385.74107
G1 X104.640 Y73.230 E386.60965
G1 X132.477 Y24.923 E396.95585
G1 X141.180 Y28.535 E398.70450
G1 X158.238 Y41.649 E402.69724
G1 X171.327 Y58.739 E406.69200
G1 X179.362 Y78.176 E410.59503
G1 X173.745 Y79.684 E411.67442
G1 X166.291 Y61.654 E415.29493
G1 X154.126 Y45.771 E419.00754
G1 X145.747 Y39.329 E420.96892
G1 X120.819 Y82.589 E430.23422
G1 X123.667 Y86.308 E431.10361
G1 X126.398 Y92.913 E432.42976
G1 X127.329 Y100.000 E433.75626
G1 X126.718 Y104.648 E434.62626
G1 X174.933 Y132.539 E444.96260
G1 X171.327 Y141.261 E446.71404
G1 X158.238 Y158.351 E450.70880
G1 X141.180 Y171.465 E454.70153
G1 X121.783 Y179.516 E458.59882
G1 X120.277 Y173.886 E459.68027
G1 X138.273 Y166.417 E463.29598
G1 X154.126 Y154.229 E467.00678
G1 X160.555 Y145.836 E468.96870
G1 X117.377 Y120.859 E478.22510
G1 X113.664 Y123.714 E479.09430
G1 X107.073 Y126.449 E480.41855
G1 X100.000 Y127.382 E481.74246
G1 X95.360 Y126.770 E482.61103
G1 X67.523 Y175.077 E492.95723
G1 X58.820 Y171.465 E494.70589
G1 X41.762 Y158.351 E498.69862
G1 X28.673 Y141.261 E502.69338
G1 X20.638 Y121.824 E506.59641
G1 X26.255 Y120.316 E507.67580
G1 X33.709 Y138.346 E511.29632
G1 X45.874 Y154.229 E515.00892
G1 X54.253 Y160.671 E516.97031
G1 X79.181 Y117.411 E526.23560
G1 X76.333 Y113.692 E527.10499
G1 X73.602 Y107.087 E528.43114
G1 X72.671 Y100.000 E529.75764
G1 X73.282 Y95.352 E530.62765
G1 X25.067 Y67.461 E540.96398
G1 X28.673 Y58.739 E542.71542
G1 X41.762 Y41.649 E546.71018
G1 X58.820 Y28.535 E550.70291
G1 X78.217 Y20.484 E554.60021
G1 X79.723 Y26.114 E555.68165
G1 X61.727 Y33.583 E559.29736
G1 X45.874 Y45.771 E563.00816
G1 X39.445 Y54.164 E564.97008
G1 X82.558 Y79.103 E574.21257
G1 X82.950 Y79.518 F7800.000
G1 E572.21257 F2400.00000
G92 E0
G1 X35.559 Y54.494 F7800.000
G1 E2.00000 F2400.00000
G1 F1800
G1 X43.825 Y43.707 E5.40730
G1 X60.200 Y31.115 E10.58661
G1 X60.348 Y31.028 E10.62959
G1 X76.891 Y24.162 E15.12021
G1 E13.12021 F2400.00000
G92 E0
G1 X35.199 Y54.730 F7800.000
G1 E2.00000 F2400.00000
G1 F1800
G1 X34.503 Y55.425 E2.18291
G1 X30.666 Y60.435 E3.35641
G1 X30.601 Y60.592 E3.38803
G1 X35.915 Y55.279 E4.78553
G1 X36.593 Y55.798 E4.94433
G1 X36.984 Y55.287 E5.06406
G1 X37.103 Y55.355 E5.08961
G1 X29.710 Y62.749 E7.03415
G1 X28.818 Y64.906 E7.46819
G1 X37.905 Y55.819 E9.85806
G1 X38.706 Y56.283 E10.03026
G1 X28.239 Y66.750 E12.78322
G1 X29.041 Y67.214 E12.95543
G1 X39.508 Y56.746 E15.70838
G1 X40.310 Y57.210 E15.88059
G1 X29.842 Y67.678 E18.63354
G1 X30.644 Y68.141 E18.80575
G1 X41.111 Y57.674 E21.55871
G1 X41.913 Y58.137 E21.73091
G1 X31.445 Y68.605 E24.48387
G1 X32.247 Y69.068 E24.65607
G1 X42.714 Y58.601 E27.40903
G1 X43.516 Y59.065 E27.58123
G1 X33.048 Y69.532 E30.33419
G1 X33.850 Y69.996 E30.50640
G1 X44.317 Y59.528 E33.25935
G1 X45.119 Y59.992 E33.43156
G1 X34.651 Y70.459 E36.18451
G1 X35.453 Y70.923 E36.35672
G1 X45.920 Y60.456 E39.10968
G1 X46.722 Y60.919 E39.28188
G1 X36.254 Y71.387 E42.03484
G1 X37.056 Y71.850 E42.20704
G1 X47.523 Y61.383 E44.96000
G1 X48.325 Y61.847 E45.13220
G1 X37.857 Y72.314 E47.88516
G1 X38.659 Y72.778 E48.05737
G1 X49.126 Y62.310 E50.81032
G1 X49.928 Y62.774 E50.98253
G1 X39.461 Y73.241 E53.73548
G1 X40.262 Y73.705 E53.90769
G1 X50.729 Y63.238 E56.66065
G1 X51.531 Y63.701 E56.83285
G1 X41.064 Y74.169 E59.58581
G1 X41.865 Y74.632 E59.75801
G1 X52.333 Y64.165 E62.51097
G1 X53.134 Y64.629 E62.68317
G1 X42.667 Y75.096 E65.43613
G1 X43.468 Y75.560 E65.60834
G1 X53.936 Y65.092 E68.36129
G1 X54.737 Y65.556 E68.53350
G1 X44.270 Y76.023 E71.28645
G1 X45.071 Y76.487 E71.45866
G1 X55.539 Y66.020 E74.21162
G1 X56.340 Y66.483 E74.38382
G1 X45.873 Y76.951 E77.13678
G1 X46.674 Y77.414 E77.30898
G1 X57.142 Y66.947 E80.06194
G1 X57.943 Y67.411 E80.23415
G1 X47.476 Y77.878 E82.98710
G1 X48.277 Y78.342 E83.15931
G1 X58.745 Y67.874 E85.91226
G1 X59.546 Y68.338 E86.08447
G1 X49.079 Y78.805 E88.83743
G1 X49.880 Y79.269 E89.00963
G1 X60.348 Y68.802 E91.76259
G1 X61.149 Y69.265 E91.93479
G1 X50.682 Y79.733 E94.68775
G1 X51.484 Y80.196 E94.85995
G1 X61.951 Y69.729 E97.61291
G1 X62.752 Y70.192 E97.78512
G1 X52.285 Y80.660 E100.53807
G1 X53.087 Y81.124 E100.71028
G1 X63.554 Y70.656 E103.46324
G1 X64.356 Y71.120 E103.63544
G1 X53.888 Y81.587 E106.38840
G1 X54.690 Y82.051 E106.56060
G1 X65.157 Y71.583 E109.31356
G1 X65.959 Y72.047 E109.48576
G1 X55.491 Y82.515 E112.23872
G1 X56.293 Y82.978 E112.41093
G1 X66.760 Y72.511 E115.16388
G1 X67.562 Y72.974 E115.33609
G1 X57.094 Y83.442 E118.08905
G1 X57.896 Y83.906 E118.26125
G1 X68.363 Y73.438 E121.01421
G1 X69.165 Y73.902 E121.18641
G1 X58.697 Y84.369 E123.93937
G1 X59.499 Y84.833 E124.11157
G1 X69.966 Y74.365 E126.86453
G1 X70.768 Y74.829 E127.03674
G1 X60.300 Y85.296 E129.78969
G1 X61.102 Y85.760 E129.96190
G1 X71.569 Y75.293 E132.71486
G1 X72.371 Y75.756 E132.88706
G1 X61.903 Y86.224 E135.64002
G1 X62.705 Y86.687 E135.81222
G1 X73.172 Y76.220 E138.56518
G1 X73.974 Y76.684 E138.73739
G1 X63.507 Y87.151 E141.49034
G1 X64.308 Y87.615 E141.66255
G1 X74.775 Y77.147 E144.41550
G1 X75.577 Y77.611 E144.58771
G1 X65.110 Y88.078 E147.34067
G1 X65.911 Y88.542 E147.51287
G1 X76.379 Y78.075 E150.26583
G1 X77.180 Y78.538 E150.43803
G1 X66.713 Y89.006 E153.19099
G1 X67.514 Y89.469 E153.36320
G1 X77.982 Y79.002 E156.11615
G1 X78.783 Y79.466 E156.28836
G1 X68.316 Y89.933 E159.04131
G1 X69.117 Y90.397 E159.21352
G1 X79.585 Y79.929 E161.96648
G1 X80.386 Y80.393 E162.13868
G1 X69.919 Y90.860 E164.89164
G1 X70.720 Y91.324 E165.06384
G1 X81.188 Y80.857 E167.81680
G1 X81.989 Y81.320 E167.98901
G1 X71.522 Y91.788 E170.74196
G1 X72.323 Y92.251 E170.91417
G1 X82.791 Y81.784 E173.66712
G1 X83.181 Y82.009 E173.75090
G1 X85.991 Y79.849 E174.41008
G1 X73.125 Y92.715 E177.79384
G1 X73.926 Y93.179 E177.96604
G1 X89.390 Y77.715 E182.03306
G1 X91.553 Y76.817 E182.46853
G1 X74.728 Y93.642 E186.89356
G1 X75.530 Y94.106 E187.06576
G1 X93.716 Y75.920 E191.84880
G1 X93.975 Y75.812 E191.90090
G1 X95.258 Y75.643 E192.14158
G1 X75.702 Y95.199 E197.28486
G1 X75.510 Y96.656 E197.55807
G1 X96.715 Y75.451 E203.13500
G1 X98.172 Y75.259 E203.40839
G1 X75.319 Y98.112 E209.41897
G1 X75.127 Y99.569 E209.69218
G1 X99.630 Y75.066 E216.13640
G1 X100.347 Y74.972 E216.27095
G1 X100.915 Y75.047 E216.37743
G1 X75.094 Y100.868 E223.16850
G1 X75.240 Y101.986 E223.37825
G1 X102.033 Y75.194 E230.42464
G1 X103.150 Y75.341 E230.63431
G1 X75.387 Y103.104 E237.93603
G1 X75.534 Y104.223 E238.14578
G1 X104.268 Y75.489 E245.70282
G1 X105.386 Y75.636 E245.91249
G1 X75.681 Y105.341 E253.72486
G1 X75.828 Y106.459 E253.93461
G1 X142.592 Y39.696 E271.49359
G1 X140.871 Y42.681 E272.13442
G1 X76.143 Y107.410 E289.15815
G1 X76.513 Y108.305 E289.33829
G1 X139.151 Y45.667 E305.81221
G1 X137.430 Y48.653 E306.45304
G1 X76.883 Y109.200 E322.37715
G1 X77.253 Y110.095 E322.55729
G1 X135.710 Y51.638 E337.93159
G1 X133.990 Y54.624 E338.57242
G1 X77.623 Y110.990 E353.39692
G1 X77.993 Y111.885 E353.57706
G1 X132.269 Y57.609 E367.85175
G1 X130.549 Y60.595 E368.49258
G1 X78.381 Y112.762 E382.21272
G1 X78.930 Y113.479 E382.38055
G1 X128.828 Y63.581 E395.50390
G1 X127.108 Y66.566 E396.14473
G1 X79.479 Y114.195 E408.67128
G1 X80.027 Y114.912 E408.83911
G1 X95.462 Y99.477 E412.89845
G1 X95.495 Y99.229 E412.94495
G1 X95.926 Y98.191 E413.15397
G1 X96.611 Y97.300 E413.36299
G1 X97.535 Y96.593 E413.57938
G1 X98.611 Y96.178 E413.79383
G1 X98.783 Y96.156 E413.82621
G1 X125.387 Y69.552 E420.82311
G1 X123.667 Y72.538 E421.46394
G1 X100.104 Y96.101 E427.66116
G1 X100.771 Y96.189 E427.78629
G1 X101.131 Y96.339 E427.85882
G1 X121.946 Y75.523 E433.33339
