; generated by Slic3r 1.3.0 on 2021-08-22 at 09:44:26

; external perimeters extrusion width = 0.55mm (5.57mm^3/s)
; perimeters extrusion width = 0.58mm (11.78mm^3/s)
; infill extrusion width = 0.58mm (15.71mm^3/s)
; solid infill extrusion width = 0.58mm (3.93mm^3/s)
; top infill extrusion width = 0.58mm (2.95mm^3/s)

M107
M190 S65 ; set bed temperature and wait for it to be reached
M104 S205 ; set temperature
G28 ; home all axes
G1 Z5 F5000 ; lift nozzle

; Filament gcode

M109 S205 ; set temperature and wait for it to be reached
G21 ; set units to millimeters
G90 ; use absolute coordinates
M82 ; use absolute distances for extrusion
G92 E0
G1 Z0.500 F7800.000
G1 E-2.00000 F2400.00000
G92 E0
G1 X35.933 Y37.101 F7800.000
G1 E2.00000 F2400.00000
G1 F1800
G1 X37.204 Y35.828 E2.33390
G1 X54.366 Y22.634 E6.35108
G1 X55.925 Y21.732 E6.68531
G1 X75.911 Y13.438 E10.70075
G1 X79.127 Y12.935 E11.30480
G1 X132.837 Y17.424 E21.30657
G1 X134.905 Y17.926 E21.70149
G1 X144.075 Y21.732 E23.54388
G1 X145.634 Y22.634 E23.87810
G1 X162.796 Y35.828 E27.89528
G1 X164.067 Y37.101 E28.22919
G1 X177.236 Y54.296 E32.24837
G1 X178.134 Y55.854 E32.58196
G1 X186.412 Y75.878 E36.60288
G1 X186.911 Y79.083 E37.20483
G1 X182.431 Y132.897 E47.22559
G1 X181.932 Y134.958 E47.61920
G1 X178.133 Y144.146 E49.46412
G1 X177.236 Y145.704 E49.79769
G1 X164.067 Y162.899 E53.81686
G1 X162.796 Y164.172 E54.15077
G1 X145.634 Y177.366 E58.16795
G1 X144.075 Y178.268 E58.50217
G1 X124.089 Y186.562 E62.51762
G1 X120.873 Y187.065 E63.12167
G1 X67.163 Y182.576 E73.12343
G1 X65.095 Y182.074 E73.51836
G1 X55.925 Y178.268 E75.36074
G1 X54.366 Y177.366 E75.69496
G1 X37.204 Y164.172 E79.71214
G1 X35.933 Y162.899 E80.04605
G1 X22.764 Y145.704 E84.06523
G1 X21.866 Y144.146 E84.39882
G1 X13.588 Y124.122 E88.41974
G1 X13.089 Y120.917 E89.02170
G1 X17.569 Y67.103 E99.04246
G1 X18.068 Y65.042 E99.43607
G1 X21.866 Y55.854 E101.28096
G1 X22.764 Y54.296 E101.61455
G1 X35.887 Y37.161 E105.61981
G1 E103.61981 F2400.00000
G92 E0
G1 X83.045 Y82.519 F7800.000
G1 E2.00000 F2400.00000
G1 F1800
G1 X84.639 Y80.830 E2.43102
G1 X87.626 Y78.533 E3.13014
G1 X93.594 Y76.056 E4.32935
G1 X100.000 Y75.211 E5.52835
G1 X103.776 Y75.709 E6.23521
G1 X108.703 Y77.032 E7.18173
G1 X114.373 Y80.101 E8.37820
G1 X119.140 Y84.616 E9.59651
G1 X121.431 Y87.607 E10.29582
G1 X123.902 Y93.585 E11.49621
G1 X124.745 Y100.000 E12.69683
G1 X124.248 Y103.781 E13.40454
G1 X122.929 Y108.715 E14.35227
G1 X119.866 Y114.394 E15.54969
G1 X115.361 Y119.170 E16.76806
G1 X112.374 Y121.467 E17.46719
G1 X106.406 Y123.944 E18.66640
G1 X100.000 Y124.789 E19.86539
G1 X96.224 Y124.291 E20.57226
G1 X91.297 Y122.968 E21.51878
G1 X85.627 Y119.899 E22.71525
G1 X80.860 Y115.384 E23.93355
G1 X78.569 Y112.393 E24.63286
G1 X76.098 Y106.415 E25.83326
G1 X75.255 Y100.000 E27.03387
G1 X75.752 Y96.219 E27.74158
G1 X77.071 Y91.285 E28.68931
G1 X80.134 Y85.606 E29.88673
G1 X82.994 Y82.574 E30.66017
G1 X83.695 Y83.132 F7800.000
G1 F1800
G1 X85.239 Y81.494 E31.07797
G1 X88.077 Y79.313 E31.74206
G1 X93.828 Y76.926 E32.89759
G1 X100.000 Y76.112 E34.05289
G1 X103.602 Y76.587 E34.72703
G1 X108.370 Y77.867 E35.64321
G1 X113.844 Y80.831 E36.79839
G1 X118.474 Y85.215 E37.98167
G1 X120.651 Y88.057 E38.64599
G1 X123.033 Y93.818 E39.80282
G1 X123.845 Y100.000 E40.95989
G1 X123.371 Y103.607 E41.63500
G1 X122.094 Y108.383 E42.55248
G1 X119.136 Y113.867 E43.70869
G1 X114.761 Y118.506 E44.89206
G1 X111.923 Y120.687 E45.55615
G1 X106.172 Y123.074 E46.71168
G1 X100.000 Y123.888 E47.86697
G1 X96.398 Y123.413 E48.54111
G1 X91.630 Y122.133 E49.45729
G1 X86.156 Y119.169 E50.61248
G1 X81.526 Y114.785 E51.79575
G1 X79.349 Y111.943 E52.46007
G1 X76.967 Y106.182 E53.61691
G1 X76.155 Y100.000 E54.77398
G1 X76.629 Y96.393 E55.44909
G1 X77.906 Y91.617 E56.36657
G1 X80.864 Y86.133 E57.52278
G1 X83.643 Y83.186 E58.27442
G1 X84.344 Y83.744 F7800.000
G1 F1800
G1 X85.840 Y82.158 E58.67902
G1 X88.527 Y80.092 E59.30806
G1 X94.061 Y77.796 E60.41992
G1 X100.000 Y77.012 E61.53152
G1 X103.427 Y77.464 E62.17293
G1 X108.037 Y78.702 E63.05877
G1 X113.316 Y81.560 E64.17267
G1 X117.809 Y85.814 E65.32092
G1 X119.871 Y88.506 E65.95024
G1 X122.163 Y94.051 E67.06351
G1 X122.945 Y100.000 E68.17705
G1 X122.493 Y103.433 E68.81955
G1 X121.258 Y108.052 E69.70679
G1 X118.406 Y113.340 E70.82179
G1 X114.160 Y117.842 E71.97015
G1 X111.473 Y119.908 E72.59920
G1 X105.939 Y122.204 E73.71105
G1 X100.000 Y122.988 E74.82265
G1 X96.573 Y122.536 E75.46406
G1 X91.963 Y121.298 E76.34990
G1 X86.684 Y118.440 E77.46380
G1 X82.191 Y114.186 E78.61205
G1 X80.129 Y111.494 E79.24138
G1 X77.837 Y105.949 E80.35465
G1 X77.055 Y100.000 E81.46818
G1 X77.507 Y96.567 E82.11068
G1 X78.742 Y91.948 E82.99792
G1 X81.594 Y86.660 E84.11292
G1 X84.292 Y83.799 E84.84277
G1 X84.176 Y83.273 F7800.000
G1 E82.84277 F2400.00000
G92 E0
G1 X82.763 Y81.285 F7800.000
G1 E2.00000 F2400.00000
G1 F1800
G1 X87.238 Y77.845 E3.04733
G1 X93.394 Y75.290 E4.28423
G1 X100.000 Y74.419 E5.52074
G1 X105.591 Y75.156 E6.56726
G1 X133.241 Y27.173 E16.84409
G1 X140.279 Y30.093 E18.25809
G1 X156.963 Y42.921 E22.16355
G1 X169.767 Y59.638 E26.07111
G1 X176.936 Y76.979 E29.55321
G1 X174.796 Y77.554 E29.96435
G1 X167.851 Y60.755 E33.33754
G1 X155.401 Y44.499 E37.13735
G1 X145.218 Y36.670 E39.52081
G1 X118.677 Y82.729 E49.38553
G1 X122.107 Y87.208 E50.43230
G1 X124.658 Y93.378 E51.67133
G1 X125.528 Y100.000 E52.91075
G1 X124.793 Y105.597 E53.95834
G1 X172.685 Y133.301 E64.22568
G1 X169.767 Y140.362 E65.64342
G1 X156.963 Y157.079 E69.55099
G1 X140.279 Y169.907 E73.45644
G1 X122.981 Y177.085 E76.93184
G1 X122.406 Y174.935 E77.34482
G1 X139.175 Y167.976 E80.71398
G1 X155.401 Y155.501 E84.51206
G1 X163.208 Y145.308 E86.89472
G1 X117.237 Y118.715 E96.75005
G1 X112.762 Y122.155 E97.79739
G1 X106.606 Y124.710 E99.03429
G1 X100.000 Y125.581 E100.27080
G1 X94.409 Y124.844 E101.31731
G1 X66.759 Y172.827 E111.59415
G1 X59.721 Y169.907 E113.00814
G1 X43.037 Y157.079 E116.91360
G1 X30.233 Y140.362 E120.82116
G1 X23.064 Y123.021 E124.30326
G1 X25.204 Y122.446 E124.71440
G1 X32.149 Y139.245 E128.08759
G1 X44.599 Y155.501 E131.88740
G1 X54.782 Y163.330 E134.27087
G1 X81.323 Y117.271 E144.13559
G1 X77.893 Y112.792 E145.18235
G1 X75.342 Y106.622 E146.42139
G1 X74.472 Y100.000 E147.66081
G1 X75.207 Y94.403 E148.70839
G1 X27.315 Y66.699 E158.97573
G1 X30.233 Y59.638 E160.39348
G1 X43.037 Y42.921 E164.30105
G1 X59.721 Y30.093 E168.20650
G1 X77.019 Y22.915 E171.68189
G1 X77.594 Y25.065 E172.09488
G1 X60.825 Y32.024 E175.46404
G1 X44.599 Y44.499 E179.26211
G1 X36.792 Y54.692 E181.64478
G1 X82.698 Y81.247 E191.48620
G1 X82.693 Y80.213 F7800.000
G1 F1800
G1 X86.787 Y77.065 E192.44446
G1 X93.160 Y74.420 E193.72503
G1 X100.000 Y73.518 E195.00524
G1 X105.116 Y74.193 E195.96279
G1 X132.859 Y26.048 E206.27430
G1 X140.729 Y29.314 E207.85563
G1 X157.601 Y42.285 E211.80473
G1 X170.547 Y59.189 E215.75589
G1 X178.149 Y77.578 E219.44845
G1 X174.270 Y78.619 E220.19372
G1 X167.071 Y61.205 E223.69057
G1 X154.764 Y45.135 E227.44678
G1 X145.483 Y37.999 E229.61920
G1 X119.748 Y82.659 E239.18421
G1 X122.887 Y86.758 E240.14229
G1 X125.528 Y93.145 E241.42488
G1 X126.428 Y100.000 E242.70784
G1 X125.755 Y105.123 E243.66663
G1 X173.809 Y132.920 E253.96847
G1 X170.547 Y140.811 E255.55306
G1 X157.601 Y157.715 E259.50423
G1 X140.729 Y170.686 E263.45332
G1 X122.382 Y178.300 E267.13966
G1 X121.342 Y174.411 E267.88688
G1 X138.724 Y167.197 E271.37931
G1 X154.764 Y154.865 E275.13375
G1 X161.881 Y145.572 E277.30604
G1 X117.307 Y119.787 E286.86191
G1 X113.213 Y122.935 E287.82017
G1 X106.840 Y125.580 E289.10075
G1 X100.000 Y126.482 E290.38096
G1 X94.884 Y125.807 E291.33850
G1 X67.141 Y173.952 E301.65002
G1 X59.271 Y170.686 E303.23135
G1 X42.399 Y157.715 E307.18044
G1 X29.453 Y140.811 E311.13161
G1 X21.851 Y122.422 E314.82417
G1 X25.730 Y121.381 E315.56943
G1 X32.929 Y138.795 E319.06629
G1 X45.236 Y154.865 E322.82250
G1 X54.517 Y162.001 E324.99492
G1 X80.252 Y117.341 E334.55993
G1 X77.113 Y113.242 E335.51801
G1 X74.472 Y106.855 E336.80060
G1 X73.572 Y100.000 E338.08356
G1 X74.245 Y94.877 E339.04235
G1 X26.191 Y67.080 E349.34419
G1 X29.453 Y59.189 E350.92878
G1 X42.399 Y42.285 E354.87995
G1 X59.271 Y29.314 E358.82904
G1 X77.618 Y21.700 E362.51538
G1 X78.658 Y25.589 E363.26260
G1 X61.276 Y32.803 E366.75503
G1 X45.236 Y45.135 E370.50947
G1 X38.119 Y54.428 E372.68176
G1 X82.628 Y80.175 E382.22372
G1 X82.623 Y79.141 F7800.000
G1 F1800
G1 X86.336 Y76.286 E383.09291
G1 X92.927 Y73.551 E384.41716
G1 X100.000 Y72.618 E385.74107
G1 X104.640 Y73.230 E386.60964
G1 X132.477 Y24.923 E396.95584
G1 X141.180 Y28.535 E398.70450
G1 X158.238 Y41.649 E402.69724
G1 X171.327 Y58.739 E406.69200
G1 X179.362 Y78.176 E410.59503
G1 X173.745 Y79.684 E411.67441
G1 X166.291 Y61.654 E415.29493
G1 X154.126 Y45.771 E419.00754
G1 X145.747 Y39.329 E420.96892
G1 X120.819 Y82.589 E430.23422
G1 X123.667 Y86.308 E431.10360
G1 X126.398 Y92.913 E432.42976
G1 X127.329 Y100.000 E433.75626
G1 X126.718 Y104.648 E434.62626
G1 X174.933 Y132.539 E444.96259
G1 X171.327 Y141.261 E446.71403
G1 X158.238 Y158.351 E450.70879
G1 X141.180 Y171.465 E454.70153
G1 X121.783 Y179.516 E458.59882
G1 X120.277 Y173.886 E459.68026
G1 X138.273 Y166.417 E463.29597
G1 X154.126 Y154.229 E467.00677
G1 X160.555 Y145.836 E468.96869
G1 X117.377 Y120.859 E478.22510
G1 X113.664 Y123.714 E479.09429
G1 X107.073 Y126.449 E480.41854
G1 X100.000 Y127.382 E481.74245
G1 X95.360 Y126.770 E482.61102
G1 X67.523 Y175.077 E492.95722
G1 X58.820 Y171.465 E494.70588
G1 X41.762 Y158.351 E498.69862
G1 X28.673 Y141.261 E502.69338
G1 X20.638 Y121.824 E506.59640
G1 X26.255 Y120.316 E507.67579
G1 X33.709 Y138.346 E511.29631
G1 X45.874 Y154.229 E515.00892
G1 X54.253 Y160.671 E516.97030
G1 X79.181 Y117.411 E526.23560
G1 X76.333 Y113.692 E527.10498
G1 X73.602 Y107.087 E528.43114
G1 X72.671 Y100.000 E529.75764
G1 X73.282 Y95.352 E530.62764
G1 X25.067 Y67.461 E540.96398
G1 X28.673 Y58.739 E542.71541
G1 X41.762 Y41.649 E546.71017
G1 X58.820 Y28.535 E550.70291
G1 X78.217 Y20.484 E554.60020
G1 X79.723 Y26.114 E555.68164
G1 X61.727 Y33.583 E559.29736
G1 X45.874 Y45.771 E563.00815
G1 X39.445 Y54.164 E564.97008
G1 X82.558 Y79.103 E574.21257
G1 X82.950 Y79.518 F7800.000
G1 E572.21257 F2400.00000
G92 E0
G1 X83.346 Y81.470 F7800.000
G1 E2.00000 F2400.00000
G1 F1800
G1 X82.895 Y81.877 E2.00608
G1 E0.00608 F2400.00000
G92 E0
G1 X75.191 Y93.910 F7800.000
G1 E2.00000 F2400.00000
G1 F1800
G1 X75.885 Y93.215 E2.18436
G1 X76.351 Y91.472 E2.52305
G1 X74.382 Y93.442 E3.04590
G1 X73.573 Y92.974 E3.22132
G1 X77.335 Y89.212 E4.22004
G1 X78.830 Y86.440 E4.81112
G1 X72.764 Y92.506 E6.42136
G1 X71.955 Y92.038 E6.59679
G1 X82.240 Y81.752 E9.32717
G1 X81.930 Y81.408 E9.41418
G1 X82.012 Y81.334 E9.43511
G1 X81.613 Y81.103 E9.52167
G1 X71.146 Y91.570 E12.30026
G1 X70.337 Y91.102 E12.47569
G1 X80.804 Y80.635 E15.25427
G1 X79.995 Y80.167 E15.42970
G1 X69.528 Y90.634 E18.20829
G1 X68.719 Y90.166 E18.38371
G1 X79.186 Y79.699 E21.16230
G1 X78.377 Y79.231 E21.33773
G1 X67.910 Y89.698 E24.11632
G1 X67.101 Y89.230 E24.29174
G1 X77.568 Y78.763 E27.07033
G1 X76.759 Y78.295 E27.24576
G1 X66.292 Y88.762 E30.02434
G1 X65.483 Y88.294 E30.19977
G1 X75.950 Y77.827 E32.97836
G1 X75.141 Y77.359 E33.15378
G1 X64.674 Y87.826 E35.93237
G1 X63.865 Y87.358 E36.10780
G1 X74.332 Y76.891 E38.88639
G1 X73.523 Y76.423 E39.06181
G1 X63.056 Y86.890 E41.84040
G1 X62.247 Y86.422 E42.01583
G1 X72.714 Y75.955 E44.79441
G1 X71.905 Y75.487 E44.96984
G1 X61.438 Y85.954 E47.74843
G1 X60.629 Y85.486 E47.92385
G1 X71.096 Y75.019 E50.70244
G1 X70.287 Y74.551 E50.87787
G1 X59.820 Y85.018 E53.65645
G1 X59.011 Y84.550 E53.83188
G1 X69.478 Y74.083 E56.61047
G1 X68.669 Y73.615 E56.78589
G1 X58.202 Y84.082 E59.56448
G1 X57.393 Y83.614 E59.73991
G1 X67.860 Y73.147 E62.51850
G1 X67.051 Y72.679 E62.69392
G1 X56.584 Y83.146 E65.47251
G1 X55.775 Y82.679 E65.64794
G1 X66.242 Y72.211 E68.42652
G1 X65.433 Y71.743 E68.60195
G1 X54.966 Y82.211 E71.38054
G1 X54.157 Y81.743 E71.55596
G1 X64.624 Y71.275 E74.33455
G1 X63.815 Y70.807 E74.50998
G1 X53.348 Y81.275 E77.28856
G1 X52.539 Y80.807 E77.46399
G1 X63.006 Y70.339 E80.24258
G1 X62.197 Y69.871 E80.41800
G1 X51.730 Y80.339 E83.19659
G1 X50.921 Y79.871 E83.37202
G1 X61.388 Y69.403 E86.15061
G1 X60.579 Y68.935 E86.32603
G1 X50.112 Y79.403 E89.10462
G1 X49.303 Y78.935 E89.28005
G1 X59.770 Y68.467 E92.05863
G1 X58.961 Y67.999 E92.23406
G1 X48.494 Y78.467 E95.01265
G1 X47.685 Y77.999 E95.18807
G1 X58.152 Y67.531 E97.96666
G1 X57.343 Y67.063 E98.14209
G1 X46.876 Y77.531 E100.92067
G1 X46.067 Y77.063 E101.09610
G1 X56.534 Y66.595 E103.87469
G1 X55.725 Y66.127 E104.05011
G1 X45.258 Y76.595 E106.82870
G1 X44.449 Y76.127 E107.00413
G1 X54.916 Y65.659 E109.78272
G1 X54.107 Y65.192 E109.95814
G1 X43.640 Y75.659 E112.73673
G1 X42.831 Y75.191 E112.91216
G1 X53.298 Y64.724 E115.69074
G1 X52.489 Y64.256 E115.86617
G1 X42.022 Y74.723 E118.64476
G1 X41.213 Y74.255 E118.82018
G1 X51.680 Y63.788 E121.59877
G1 X50.871 Y63.320 E121.77420
G1 X40.404 Y73.787 E124.55278
G1 X39.595 Y73.319 E124.72821
G1 X50.062 Y62.852 E127.50680
G1 X49.253 Y62.384 E127.68222
G1 X38.786 Y72.851 E130.46081
G1 X37.977 Y72.383 E130.63624
G1 X48.444 Y61.916 E133.41482
G1 X47.635 Y61.448 E133.59025
G1 X37.168 Y71.915 E136.36884
G1 X36.359 Y71.447 E136.54426
G1 X46.826 Y60.980 E139.32285
G1 X46.017 Y60.512 E139.49828
G1 X35.550 Y70.979 E142.27686
G1 X34.741 Y70.511 E142.45229
G1 X45.208 Y60.044 E145.23088
G1 X44.399 Y59.576 E145.40630
G1 X33.932 Y70.043 E148.18489
G1 X33.123 Y69.575 E148.36032
G1 X43.590 Y59.108 E151.13891
G1 X42.781 Y58.640 E151.31433
G1 X32.314 Y69.107 E154.09292
G1 X31.505 Y68.639 E154.26835
G1 X41.972 Y58.172 E157.04693
G1 X41.163 Y57.704 E157.22236
G1 X30.696 Y68.171 E160.00095
G1 X29.887 Y67.703 E160.17637
G1 X40.354 Y57.236 E162.95496
G1 X39.545 Y56.768 E163.13039
G1 X29.078 Y67.235 E165.90897
G1 X28.269 Y66.767 E166.08440
G1 X38.736 Y56.300 E168.86299
G1 X37.927 Y55.832 E169.03841
G1 X28.793 Y64.966 E171.46303
G1 X29.693 Y62.789 E171.90520
G1 X37.118 Y55.364 E173.87616
G1 X36.984 Y55.287 E173.90517
G1 X36.593 Y55.798 E174.02601
G1 X35.922 Y55.284 E174.18473
G1 X30.593 Y60.612 E175.59917
G1 X30.666 Y60.435 E175.63511
G1 X34.504 Y55.425 E176.81968
G1 X35.199 Y54.730 E177.00415
G1 X35.559 Y54.494 F7800.000
G1 F1800
G1 X43.825 Y43.707 E180.41146
G1 X60.200 Y31.115 E185.59078
G1 X60.348 Y31.028 E185.63375
G1 X76.891 Y24.162 E190.12438
G1 E188.12438 F2400.00000
G92 E0
G1 X133.970 Y27.951 F7800.000
G1 E2.00000 F2400.00000
G1 F1800
G1 X133.275 Y28.645 E2.18286
G1 X131.554 Y31.634 E2.82480
G1 X134.865 Y28.322 E3.69649
G1 X135.760 Y28.693 E3.87683
G1 X129.832 Y34.622 E5.43735
G1 X128.110 Y37.610 E6.07929
G1 X136.655 Y29.065 E8.32864
G1 X137.550 Y29.436 E8.50899
G1 X126.388 Y40.598 E11.44716
G1 X124.666 Y43.586 E12.08911
G1 X138.445 Y29.808 E15.71611
G1 X139.340 Y30.179 E15.89646
G1 X122.944 Y46.575 E20.21230
G1 X121.222 Y49.563 E20.85424
G1 X140.223 Y30.562 E25.85578
G1 X140.938 Y31.113 E26.02386
G1 X119.500 Y52.551 E31.66711
G1 X117.778 Y55.539 E32.30905
G1 X141.654 Y31.663 E38.59401
G1 X142.370 Y32.213 E38.76209
G1 X116.056 Y58.528 E45.68877
G1 X114.334 Y61.516 E46.33071
G1 X143.086 Y32.764 E53.89910
G1 X143.802 Y33.314 E54.06718
G1 X112.612 Y64.504 E62.27729
G1 X110.890 Y67.492 E62.91923
G1 X144.518 Y33.865 E71.77104
G1 X145.183 Y34.376 E71.92719
G1 X144.884 Y34.765 E72.01849
G1 X109.168 Y70.480 E81.41994
G1 X107.446 Y73.469 E82.06189
G1 X144.458 Y36.457 E91.80442
G1 X142.736 Y39.445 E92.44636
G1 X106.407 Y75.775 E102.00932
