; generated by Slic3r 1.3.0 on 2021-09-04 at 09:35:02

; external perimeters extrusion width = 0.55mm (5.57mm^3/s)
; perimeters extrusion width = 0.58mm (11.78mm^3/s)
; infill extrusion width = 0.58mm (15.71mm^3/s)
; solid infill extrusion width = 0.58mm (3.93mm^3/s)
; top infill extrusion width = 0.58mm (2.95mm^3/s)

M107
M190 S65 ; set bed temperature and wait for it to be reached
M104 S205 ; set temperature
G28 ; home all axes
G1 Z5 F5000 ; lift nozzle

; Filament gcode

M109 S205 ; set temperature and wait for it to be reached
G21 ; set units to millimeters
G90 ; use absolute coordinates
M82 ; use absolute distances for extrusion
G92 E0
G1 Z0.500 F7800.000
G1 E-2.00000 F2400.00000
G92 E0
G1 X35.899 Y36.529 F7800.000
G1 E2.00000 F2400.00000
G1 F1800
G1 X37.171 Y35.256 E2.33390
G1 X54.329 Y22.077 E6.34874
G1 X55.882 Y21.179 E6.68165
G1 X75.871 Y12.888 E10.69748
G1 X78.508 Y12.362 E11.19655
G1 X121.408 Y12.341 E19.15752
G1 X124.046 Y12.865 E19.65658
G1 X144.038 Y21.134 E23.67142
G1 X145.597 Y22.033 E24.00532
G1 X162.768 Y35.196 E28.02015
G1 X164.040 Y36.467 E28.35406
G1 X170.630 Y45.046 E30.36148
G1 X171.131 Y45.796 E30.52879
G1 X181.865 Y64.367 E34.50927
G1 X182.264 Y65.175 E34.67658
G1 X186.409 Y75.167 E36.68400
G1 X186.875 Y76.905 E37.01790
G1 X189.641 Y97.838 E40.93622
G1 X189.710 Y98.354 E41.03274
G1 X189.710 Y100.153 E41.36664
G1 X186.897 Y121.604 E45.38147
G1 X186.034 Y124.151 E45.88054
G1 X164.601 Y161.314 E53.84150
G1 X162.829 Y163.337 E54.34058
G1 X145.671 Y176.516 E58.35541
G1 X144.113 Y177.417 E58.68940
G1 X124.043 Y185.718 E62.71979
G1 X122.312 Y186.182 E63.05247
G1 X111.627 Y187.594 E65.05243
G1 X110.726 Y187.654 E65.22005
G1 X89.316 Y187.659 E69.19314
G1 X88.418 Y187.600 E69.36013
G1 X77.692 Y186.193 E71.36755
G1 X75.954 Y185.729 E71.70144
G1 X55.962 Y177.459 E75.71632
G1 X54.403 Y176.560 E76.05019
G1 X37.261 Y163.420 E80.05828
G1 X35.488 Y161.400 E80.55694
G1 X13.992 Y124.236 E88.52414
G1 X13.125 Y121.688 E89.02362
G1 X10.290 Y100.239 E93.03845
G1 X10.290 Y98.440 E93.37235
G1 X13.036 Y77.504 E97.29067
G1 X13.103 Y76.989 E97.38719
G1 X13.568 Y75.251 E97.72109
G1 X17.703 Y65.254 E99.72850
G1 X18.103 Y64.442 E99.89651
G1 X28.874 Y45.789 E103.89360
G1 X29.373 Y45.043 E104.06022
G1 X35.853 Y36.589 E106.03696
G1 E104.03696 F2400.00000
G92 E0
G1 X81.914 Y83.015 F7800.000
G1 E2.00000 F2400.00000
G1 F1800
G1 X84.639 Y80.126 E2.73699
G1 X87.626 Y77.830 E3.43612
G1 X93.594 Y75.353 E4.63533
G1 X100.000 Y74.508 E5.83432
G1 X103.776 Y75.006 E6.54119
G1 X108.703 Y76.329 E7.48771
G1 X114.373 Y79.398 E8.68418
G1 X119.140 Y83.912 E9.90248
G1 X121.431 Y86.904 E10.60179
G1 X123.902 Y92.882 E11.80219
G1 X124.745 Y99.297 E13.00280
G1 X124.248 Y103.078 E13.71052
G1 X122.929 Y108.012 E14.65825
G1 X119.866 Y113.691 E15.85566
G1 X115.361 Y118.467 E17.07403
G1 X112.374 Y120.763 E17.77316
G1 X106.406 Y123.240 E18.97237
G1 X100.000 Y124.085 E20.17136
G1 X96.224 Y123.587 E20.87823
G1 X91.297 Y122.265 E21.82475
G1 X85.627 Y119.195 E23.02122
G1 X80.860 Y114.681 E24.23952
G1 X78.569 Y111.689 E24.93883
G1 X76.098 Y105.711 E26.13923
G1 X75.255 Y99.297 E27.33984
G1 X75.752 Y95.515 E28.04756
G1 X77.071 Y90.582 E28.99529
G1 X80.134 Y84.902 E30.19270
G1 X81.862 Y83.070 E30.66016
G1 X82.563 Y83.628 F7800.000
G1 F1800
G1 X85.239 Y80.791 E31.38394
G1 X88.077 Y78.609 E32.04803
G1 X93.828 Y76.223 E33.20356
G1 X100.000 Y75.408 E34.35886
G1 X103.602 Y75.883 E35.03300
G1 X108.370 Y77.164 E35.94918
G1 X113.844 Y80.127 E37.10437
G1 X118.474 Y84.511 E38.28764
G1 X120.651 Y87.353 E38.95196
G1 X123.033 Y93.115 E40.10879
G1 X123.845 Y99.297 E41.26586
G1 X123.371 Y102.904 E41.94097
G1 X122.094 Y107.680 E42.85846
G1 X119.136 Y113.164 E44.01467
G1 X114.761 Y117.803 E45.19803
G1 X111.923 Y119.984 E45.86212
G1 X106.172 Y122.371 E47.01765
G1 X100.000 Y123.185 E48.17295
G1 X96.398 Y122.710 E48.84709
G1 X91.630 Y121.430 E49.76327
G1 X86.156 Y118.466 E50.91845
G1 X81.526 Y114.082 E52.10173
G1 X79.349 Y111.240 E52.76605
G1 X76.967 Y105.479 E53.92288
G1 X76.155 Y99.297 E55.07995
G1 X76.629 Y95.690 E55.75506
G1 X77.906 Y90.913 E56.67254
G1 X80.864 Y85.429 E57.82875
G1 X82.512 Y83.682 E58.27442
G1 X83.213 Y84.240 F7800.000
G1 F1800
G1 X85.840 Y81.455 E58.98499
G1 X88.527 Y79.389 E59.61404
G1 X94.061 Y77.092 E60.72589
G1 X100.000 Y76.309 E61.83749
G1 X103.427 Y76.761 E62.47890
G1 X108.037 Y77.999 E63.36474
G1 X113.316 Y80.856 E64.47864
G1 X117.809 Y85.111 E65.62689
G1 X119.871 Y87.803 E66.25621
G1 X122.163 Y93.347 E67.36949
G1 X122.945 Y99.297 E68.48302
G1 X122.493 Y102.729 E69.12552
G1 X121.258 Y107.348 E70.01276
G1 X118.406 Y112.637 E71.12776
G1 X114.160 Y117.138 E72.27612
G1 X111.473 Y119.204 E72.90517
G1 X105.939 Y121.501 E74.01703
G1 X100.000 Y122.284 E75.12862
G1 X96.573 Y121.832 E75.77004
G1 X91.963 Y120.595 E76.65587
G1 X86.684 Y117.737 E77.76977
G1 X82.191 Y113.483 E78.91802
G1 X80.129 Y110.790 E79.54735
G1 X77.837 Y105.246 E80.66062
G1 X77.055 Y99.297 E81.77415
G1 X77.507 Y95.864 E82.41665
G1 X78.742 Y91.245 E83.30389
G1 X81.594 Y85.956 E84.41890
G1 X83.161 Y84.295 E84.84277
G1 X83.039 Y83.771 F7800.000
G1 E82.84277 F2400.00000
G92 E0
G1 X45.836 Y67.999 F7800.000
G1 E2.00000 F2400.00000
G1 F1800
G1 X37.489 Y49.541 E5.75923
G1 X43.000 Y42.352 E7.44022
G1 X59.681 Y29.539 E11.34338
G1 X70.905 Y24.884 E13.59837
G1 X71.156 Y25.207 E13.67434
G1 X57.934 Y42.728 E17.74756
G1 X59.870 Y60.556 E21.07539
G1 X85.837 Y77.723 E26.85195
G1 X93.394 Y74.586 E28.37027
G1 X100.000 Y73.715 E29.60678
G1 X103.927 Y74.233 E30.34174
G1 X110.119 Y75.896 E31.53163
G1 X139.494 Y60.238 E37.70864
G1 X141.776 Y42.510 E41.02572
G1 X128.728 Y25.161 E45.05407
G1 X128.979 Y24.837 E45.12994
G1 X140.252 Y29.501 E47.39386
G1 X156.945 Y42.297 E51.29702
G1 X162.541 Y49.582 E53.00181
G1 X155.362 Y66.607 E56.43043
G1 X174.269 Y69.855 E59.99040
G1 X177.816 Y78.406 E61.70823
G1 X180.571 Y99.258 E65.61139
G1 X179.007 Y111.182 E67.84309
G1 X178.600 Y111.236 E67.91933
G1 X169.948 Y90.424 E72.10187
G1 X153.389 Y82.366 E75.51922
G1 X125.716 Y97.863 E81.40483
G1 X125.011 Y103.233 E82.41003
G1 X123.654 Y108.307 E83.38466
G1 X120.498 Y114.159 E84.61850
G1 X115.879 Y119.055 E85.86757
G1 X111.615 Y122.334 E86.86582
G1 X112.078 Y154.008 E92.74413
G1 X127.265 Y164.331 E96.15181
G1 X149.682 Y161.362 E100.34811
G1 X149.840 Y161.741 E100.42439
G1 X140.320 Y169.053 E102.65193
G1 X120.812 Y177.123 E106.56951
G1 X111.675 Y178.330 E108.27991
G1 X99.613 Y163.837 E111.77899
G1 X88.315 Y178.330 E115.18914
G1 X79.184 Y177.132 E116.89815
G1 X59.748 Y169.093 E120.80131
G1 X50.278 Y161.833 E123.01558
G1 X50.436 Y161.453 E123.09194
G1 X72.062 Y164.339 E127.14074
G1 X86.562 Y153.948 E130.45102
G1 X86.091 Y120.710 E136.61959
G1 X80.285 Y115.213 E138.10327
G1 X77.893 Y112.089 E138.83339
G1 X75.342 Y105.919 E140.07242
G1 X74.275 Y97.795 E141.59297
G1 X46.399 Y83.874 E147.37506
G1 X29.978 Y91.145 E150.70756
G1 X21.425 Y111.425 E154.79197
G1 X21.019 Y111.371 E154.86797
G1 X19.429 Y99.335 E157.12079
G1 X22.164 Y78.481 E161.02395
G1 X25.661 Y70.026 E162.72176
G1 X45.761 Y68.007 E166.47044
G1 X44.510 Y67.235 F7800.000
G1 F1800
G1 X36.456 Y49.422 E170.09831
G1 X42.363 Y41.715 E171.90026
G1 X59.230 Y28.760 E175.84704
G1 X73.595 Y22.802 E178.73291
G1 X73.846 Y23.125 E178.80888
G1 X58.859 Y42.983 E183.42551
G1 X60.712 Y60.043 E186.60985
G1 X85.933 Y76.716 E192.22048
G1 X93.160 Y73.717 E193.67255
G1 X100.000 Y72.815 E194.95276
G1 X104.101 Y73.356 E195.72045
G1 X110.010 Y74.942 E196.85582
G1 X138.667 Y59.667 E202.88191
G1 X140.844 Y42.756 E206.04607
G1 X126.052 Y23.088 E210.61294
G1 X126.303 Y22.764 E210.68881
G1 X140.702 Y28.721 E213.58047
G1 X157.581 Y41.660 E217.52725
G1 X163.565 Y49.451 E219.35025
G1 X156.622 Y65.917 E222.66658
G1 X174.905 Y69.059 E226.10915
G1 X178.685 Y78.172 E227.94010
G1 X181.472 Y99.257 E231.88688
G1 X179.460 Y114.596 E234.75765
G1 X179.052 Y114.650 E234.83388
G1 X169.253 Y91.079 E239.57095
G1 X153.418 Y83.373 E242.83898
G1 X126.543 Y98.423 E248.55492
G1 X125.888 Y103.407 E249.48788
G1 X124.489 Y108.639 E250.49275
G1 X121.228 Y114.686 E251.76780
G1 X116.480 Y119.720 E253.05188
G1 X112.514 Y122.769 E253.98023
G1 X112.964 Y153.530 E259.68928
G1 X127.485 Y163.401 E262.94762
G1 X152.870 Y160.039 E267.69939
G1 X153.027 Y160.418 E267.77567
G1 X140.770 Y169.833 E270.64374
G1 X121.045 Y177.992 E274.60494
G1 X111.303 Y179.280 E276.42844
G1 X99.636 Y165.260 E279.81324
G1 X88.706 Y179.282 E283.11249
G1 X78.951 Y178.002 E284.93806
G1 X59.298 Y169.873 E288.88484
G1 X47.079 Y160.506 E291.74193
G1 X47.237 Y160.126 E291.81829
G1 X71.830 Y163.407 E296.42246
G1 X85.662 Y153.494 E299.58053
G1 X85.203 Y121.099 E305.59264
G1 X79.620 Y115.812 E307.01963
G1 X77.113 Y112.539 E307.78474
G1 X74.472 Y106.151 E309.06734
G1 X73.451 Y98.381 E310.52161
G1 X46.376 Y84.861 E316.13768
G1 X30.663 Y91.818 E319.32651
G1 X20.971 Y114.800 E323.95509
G1 X20.565 Y114.746 E324.03108
G1 X18.528 Y99.336 E326.91554
G1 X21.294 Y78.248 E330.86232
G1 X25.041 Y69.191 E332.68107
G1 X44.436 Y67.243 E336.29836
G1 X43.185 Y66.471 F7800.000
G1 F1800
G1 X35.422 Y49.303 E339.79487
G1 X41.726 Y41.079 E341.71779
G1 X58.780 Y27.980 E345.70818
G1 X76.285 Y20.720 E349.22493
G1 X76.535 Y21.043 E349.30090
G1 X59.785 Y43.238 E354.46094
G1 X61.554 Y59.529 E357.50180
G1 X86.030 Y75.710 E362.94649
G1 X92.927 Y72.847 E364.33231
G1 X100.000 Y71.914 E365.65622
G1 X104.276 Y72.478 E366.45663
G1 X109.901 Y73.988 E367.53748
G1 X137.840 Y59.096 E373.41267
G1 X139.912 Y43.002 E376.42391
G1 X123.376 Y21.015 E381.52930
G1 X123.627 Y20.691 E381.60517
G1 X141.152 Y27.941 E385.12456
G1 X158.218 Y41.023 E389.11496
G1 X164.590 Y49.319 E391.05616
G1 X157.881 Y65.228 E394.26020
G1 X175.541 Y68.262 E397.58539
G1 X179.555 Y77.939 E399.52945
G1 X182.372 Y99.257 E403.51985
G1 X179.912 Y118.010 E407.02968
G1 X179.505 Y118.064 E407.10591
G1 X168.559 Y91.733 E412.39751
G1 X153.447 Y84.380 E415.51622
G1 X127.370 Y98.983 E421.06248
G1 X126.766 Y103.582 E421.92321
G1 X125.325 Y108.970 E422.95833
G1 X121.958 Y115.213 E424.27458
G1 X117.080 Y120.384 E425.59366
G1 X113.413 Y123.204 E426.45212
G1 X113.850 Y153.053 E431.99190
G1 X127.706 Y162.472 E435.10091
G1 X156.057 Y158.716 E440.40814
G1 X156.215 Y159.096 E440.48442
G1 X141.221 Y170.613 E443.99303
G1 X121.278 Y178.862 E447.99785
G1 X110.932 Y180.229 E449.93445
G1 X99.659 Y166.682 E453.20497
G1 X89.096 Y180.233 E456.39331
G1 X78.719 Y178.872 E458.33544
G1 X58.848 Y170.653 E462.32584
G1 X43.880 Y159.178 E465.82575
G1 X44.038 Y158.798 E465.90211
G1 X71.597 Y162.476 E471.06166
G1 X84.763 Y153.040 E474.06752
G1 X84.316 Y121.488 E479.92316
G1 X78.954 Y116.411 E481.29346
G1 X76.333 Y112.988 E482.09357
G1 X73.602 Y106.384 E483.41973
G1 X72.628 Y98.968 E484.80773
G1 X46.353 Y85.847 E490.25777
G1 X31.348 Y92.491 E493.30295
G1 X20.516 Y118.175 E498.47568
G1 X20.110 Y118.120 E498.55168
G1 X17.628 Y99.336 E502.06778
G1 X20.425 Y78.015 E506.05817
G1 X24.420 Y68.357 E507.99785
G1 X43.111 Y66.479 E511.48376
G1 X43.638 Y66.258 F7800.000
G1 E509.48376 F2400.00000
G92 E0
G1 X46.752 Y68.973 F7800.000
G1 E2.00000 F2400.00000
G1 F1800
G1 X58.946 Y56.778 E5.20730
G1 X58.823 Y55.637 E5.42079
G1 X46.358 Y68.102 E8.69910
G1 X45.964 Y67.231 E8.87692
G1 X58.699 Y54.496 E12.22624
G1 X58.575 Y53.354 E12.43973
G1 X45.570 Y66.359 E15.86007
G1 X45.176 Y65.488 E16.03789
G1 X58.451 Y52.213 E19.52924
G1 X58.327 Y51.072 E19.74273
G1 X44.782 Y64.617 E23.30509
G1 X44.388 Y63.746 E23.48291
G1 X58.203 Y49.931 E27.11629
G1 X58.079 Y48.789 E27.32978
G1 X43.994 Y62.874 E31.03417
G1 X43.600 Y62.003 E31.21199
G1 X57.955 Y47.648 E34.98739
G1 X57.831 Y46.507 E35.20088
G1 X43.206 Y61.132 E39.04730
G1 X42.812 Y60.261 E39.22512
G1 X57.707 Y45.366 E43.14255
G1 X57.583 Y44.224 E43.35603
G1 X42.418 Y59.389 E47.34448
G1 X42.024 Y58.518 E47.52230
G1 X57.459 Y43.083 E51.58176
G1 X57.355 Y42.125 E51.76095
G1 X57.980 Y41.297 E51.95397
G1 X41.630 Y57.647 E56.25412
G1 X41.236 Y56.776 E56.43193
G1 X61.872 Y36.139 E61.85932
G1 X65.765 Y30.982 E63.06089
G1 X40.842 Y55.905 E69.61551
G1 X40.448 Y55.033 E69.79333
G1 X69.076 Y26.406 E77.32244
G1 X66.914 Y27.302 E77.75770
G1 X40.054 Y54.162 E84.82184
G1 X39.660 Y53.291 E84.99966
G1 X64.752 Y28.199 E91.59883
G1 X62.590 Y29.096 E92.03409
G1 X39.266 Y52.420 E98.16829
G1 X38.872 Y51.548 E98.34610
G1 X60.352 Y30.069 E103.99518
G1 X54.896 Y34.260 E105.27449
G1 X38.478 Y50.677 E109.59235
G1 X38.176 Y50.007 E109.72911
G1 X39.135 Y48.756 E110.02236
G1 X49.441 Y38.450 E112.73277
G1 X43.985 Y42.640 E114.01209
G1 X43.291 Y43.335 E114.19471
G1 E112.19471 F2400.00000
G92 E0
G1 X27.595 Y70.417 F7800.000
G1 E2.00000 F2400.00000
G1 F1800
G1 X25.322 Y72.690 E2.59780
G1 X24.429 Y74.848 E3.03205
G1 X29.002 Y70.276 E4.23451
G1 X30.408 Y70.134 E4.49740
G1 X23.537 Y77.005 E6.30452
G1 X22.687 Y79.061 E6.71812
G1 X22.678 Y79.130 E6.73111
G1 X31.815 Y69.993 E9.13411
G1 X33.221 Y69.852 E9.39700
G1 X22.487 Y80.586 E12.22015
G1 X22.296 Y82.042 E12.49328
G1 X34.628 Y69.710 E15.73658
G1 X36.034 Y69.569 E15.99947
G1 X22.105 Y83.498 E19.66292
G1 X21.914 Y84.954 E19.93604
G1 X37.441 Y69.428 E24.01965
G1 X38.847 Y69.286 E24.28253
G1 X21.723 Y86.411 E28.78629
G1 X21.532 Y87.867 E29.05941
G1 X40.254 Y69.145 E33.98331
G1 X41.660 Y69.004 E34.24620
G1 X21.341 Y89.323 E39.59025
G1 X21.150 Y90.779 E39.86338
G1 X43.067 Y68.862 E45.62758
G1 X44.473 Y68.721 E45.89047
G1 X20.959 Y92.235 E52.07481
G1 X20.768 Y93.692 E52.34794
G1 X45.880 Y68.580 E58.95244
G1 X47.286 Y68.438 E59.21533
G1 X20.577 Y95.148 E66.23998
G1 X20.386 Y96.604 E66.51311
G1 X59.070 Y57.919 E76.68724
G1 X59.194 Y59.061 E76.90073
G1 X20.195 Y98.060 E87.15769
G1 X20.004 Y99.516 E87.43082
G1 X59.318 Y60.202 E97.77062
G1 X59.375 Y60.722 E97.86794
G1 X59.789 Y60.996 E97.96033
G1 X30.776 Y90.009 E105.59076
G1 X33.047 Y89.003 E106.05257
G1 X60.551 Y61.500 E113.28614
G1 X61.313 Y62.003 E113.45594
G1 X35.318 Y87.998 E120.29265
G1 X37.588 Y86.993 E120.75446
G1 X62.074 Y62.507 E127.19432
G1 X62.836 Y63.010 E127.36412
G1 X39.859 Y85.987 E133.40712
G1 X42.129 Y84.982 E133.86893
G1 X63.598 Y63.514 E139.51507
G1 X64.359 Y64.017 E139.68488
G1 X44.400 Y83.976 E144.93416
G1 X46.074 Y83.235 E145.27465
G1 X46.296 Y83.346 E145.32073
G1 X65.121 Y64.521 E150.27175
G1 X65.883 Y65.024 E150.44155
G1 X47.140 Y83.767 E155.37095
G1 X47.983 Y84.189 E155.54635
G1 X66.644 Y65.528 E160.45415
G1 X67.406 Y66.031 E160.62395
G1 X48.827 Y84.610 E165.51014
G1 X49.671 Y85.031 E165.68555
G1 X68.167 Y66.535 E170.55013
G1 X68.929 Y67.038 E170.71993
G1 X50.515 Y85.453 E175.56290
G1 X51.359 Y85.874 E175.73831
G1 X69.691 Y67.542 E180.55967
G1 X70.452 Y68.045 E180.72947
G1 X52.203 Y86.295 E185.52923
G1 X53.046 Y86.717 E185.70464
G1 X71.214 Y68.549 E190.48279
G1 X71.976 Y69.053 E190.65259
G1 X53.890 Y87.138 E195.40913
G1 X54.734 Y87.559 E195.58453
G1 X72.737 Y69.556 E200.31947
G1 X73.499 Y70.060 E200.48927
G1 X55.578 Y87.981 E205.20260
G1 X56.422 Y88.402 E205.37800
G1 X74.261 Y70.563 E210.06972
G1 X75.022 Y71.067 E210.23952
G1 X57.265 Y88.824 E214.90963
G1 X58.109 Y89.245 E215.08503
G1 X75.784 Y71.570 E219.73354
G1 X76.546 Y72.074 E219.90334
G1 X58.953 Y89.666 E224.53023
G1 X59.797 Y90.088 E224.70563
G1 X77.307 Y72.577 E229.31092
G1 X78.069 Y73.081 E229.48072
G1 X60.641 Y90.509 E234.06440
G1 X61.485 Y90.930 E234.23981
G1 X78.831 Y73.584 E238.80188
G1 X79.592 Y74.088 E238.97168
G1 X62.328 Y91.352 E243.51214
G1 X63.172 Y91.773 E243.68754
G1 X80.354 Y74.591 E248.20640
G1 X81.116 Y75.095 E248.37620
G1 X64.016 Y92.195 E252.87345
G1 X64.860 Y92.616 E253.04885
G1 X81.877 Y75.598 E257.52449
G1 X82.639 Y76.102 E257.69429
G1 X65.704 Y93.037 E262.14832
