; generated by Slic3r 1.3.0 on 2021-07-13 at 12:10:12

; external perimeters extrusion width = 0.55mm (5.57mm^3/s)
; perimeters extrusion width = 0.58mm (11.78mm^3/s)
; infill extrusion width = 0.58mm (15.71mm^3/s)
; solid infill extrusion width = 0.58mm (3.93mm^3/s)
; top infill extrusion width = 0.58mm (2.95mm^3/s)

M107
M190 S65 ; set bed temperature and wait for it to be reached
M104 S205 ; set temperature
G28 ; home all axes
G1 Z5 F5000 ; lift nozzle

; Filament gcode

M109 S205 ; set temperature and wait for it to be reached
G21 ; set units to millimeters
G90 ; use absolute coordinates
M82 ; use absolute distances for extrusion
G92 E0
G1 Z0.500 F7800.000
G1 E-2.00000 F2400.00000
G92 E0
G1 X35.933 Y37.101 F7800.000
G1 E2.00000 F2400.00000
G1 F1800
G1 X37.204 Y35.828 E2.33390
G1 X54.366 Y22.634 E6.35108
G1 X55.925 Y21.732 E6.68530
G1 X65.095 Y17.926 E8.52769
G1 X67.163 Y17.424 E8.92262
G1 X120.873 Y12.935 E18.92438
G1 X124.089 Y13.438 E19.52843
G1 X144.075 Y21.732 E23.54388
G1 X145.634 Y22.634 E23.87810
G1 X162.796 Y35.828 E27.89528
G1 X164.067 Y37.101 E28.22918
G1 X177.236 Y54.296 E32.24837
G1 X178.134 Y55.854 E32.58196
G1 X181.932 Y65.042 E34.42685
G1 X182.431 Y67.103 E34.82046
G1 X186.911 Y120.917 E44.84122
G1 X186.412 Y124.122 E45.44318
G1 X178.134 Y144.146 E49.46409
G1 X177.236 Y145.704 E49.79769
G1 X164.067 Y162.899 E53.81687
G1 X162.796 Y164.172 E54.15077
G1 X145.634 Y177.366 E58.16795
G1 X144.075 Y178.268 E58.50214
G1 X134.905 Y182.074 E60.34455
G1 X132.837 Y182.576 E60.73948
G1 X79.127 Y187.065 E70.74124
G1 X75.911 Y186.562 E71.34529
G1 X55.925 Y178.268 E75.36074
G1 X54.366 Y177.366 E75.69496
G1 X37.204 Y164.172 E79.71214
G1 X35.933 Y162.899 E80.04605
G1 X22.764 Y145.704 E84.06523
G1 X21.866 Y144.146 E84.39882
G1 X18.068 Y134.958 E86.24372
G1 X17.569 Y132.897 E86.63732
G1 X13.089 Y79.083 E96.65808
G1 X13.588 Y75.878 E97.26005
G1 X21.866 Y55.854 E101.28096
G1 X22.764 Y54.296 E101.61455
G1 X35.887 Y37.161 E105.61981
G1 E103.61981 F2400.00000
G92 E0
G1 X97.590 Y97.594 F7800.000
G1 E2.00000 F2400.00000
G1 F1800
G1 X98.295 Y97.053 E2.16495
G1 X99.116 Y96.712 E2.32991
G1 X99.939 Y96.603 E2.48405
G1 X100.852 Y96.699 E2.65440
G1 X101.700 Y97.050 E2.82464
G1 X102.428 Y97.608 E2.99489
G1 X102.970 Y98.349 E3.16525
G1 X103.288 Y99.116 E3.31938
G1 X103.405 Y99.997 E3.48434
G1 X103.290 Y100.879 E3.64929
G1 X102.950 Y101.700 E3.81425
G1 X102.410 Y102.406 E3.97921
G1 X101.705 Y102.947 E4.14416
G1 X100.884 Y103.288 E4.30912
G1 X100.003 Y103.405 E4.47407
G1 X99.121 Y103.290 E4.63903
G1 X98.300 Y102.950 E4.80399
G1 X97.594 Y102.410 E4.96895
G1 X97.053 Y101.705 E5.13390
G1 X96.712 Y100.884 E5.29885
G1 X96.591 Y99.975 E5.46910
G1 X96.732 Y99.067 E5.63946
G1 X97.050 Y98.300 E5.79359
G1 X97.545 Y97.654 E5.94462
G1 X98.227 Y98.230 F7800.000
G1 F1800
G1 X98.746 Y97.832 E6.06596
G1 X99.350 Y97.581 E6.18730
G1 X99.951 Y97.501 E6.29987
G1 X100.630 Y97.573 E6.42660
G1 X101.251 Y97.830 E6.55116
G1 X101.783 Y98.238 E6.67572
G1 X102.186 Y98.789 E6.80245
G1 X102.419 Y99.350 E6.91502
G1 X102.505 Y99.998 E7.03636
G1 X102.420 Y100.646 E7.15770
G1 X102.170 Y101.251 E7.27903
G1 X101.773 Y101.770 E7.40037
G1 X101.254 Y102.168 E7.52171
G1 X100.650 Y102.419 E7.64305
G1 X100.002 Y102.505 E7.76438
G1 X99.354 Y102.420 E7.88572
G1 X98.749 Y102.170 E8.00706
G1 X98.230 Y101.773 E8.12840
G1 X97.832 Y101.254 E8.24973
G1 X97.581 Y100.650 E8.37107
G1 X97.493 Y99.985 E8.49563
G1 X97.598 Y99.310 E8.62236
G1 X97.830 Y98.749 E8.73494
G1 X98.182 Y98.290 E8.84235
G1 X98.865 Y98.867 F7800.000
G1 F1800
G1 X99.197 Y98.611 E8.92007
G1 X99.583 Y98.451 E8.99779
G1 X99.963 Y98.400 E9.06880
G1 X100.408 Y98.448 E9.15191
G1 X100.801 Y98.610 E9.23078
G1 X101.138 Y98.868 E9.30966
G1 X101.403 Y99.230 E9.39276
G1 X101.549 Y99.583 E9.46378
G1 X101.604 Y99.999 E9.54149
G1 X101.550 Y100.414 E9.61921
G1 X101.390 Y100.801 E9.69693
G1 X101.135 Y101.133 E9.77465
G1 X100.803 Y101.389 E9.85237
G1 X100.417 Y101.549 E9.93009
G1 X100.001 Y101.604 E10.00781
G1 X99.586 Y101.550 E10.08553
G1 X99.199 Y101.390 E10.16325
G1 X98.867 Y101.135 E10.24097
G1 X98.611 Y100.803 E10.31868
G1 X98.451 Y100.417 E10.39640
G1 X98.395 Y99.995 E10.47528
G1 X98.464 Y99.553 E10.55838
G1 X98.610 Y99.199 E10.62939
G1 X98.819 Y98.926 E10.69320
G1 X98.865 Y98.867 F7800.000
G1 E8.69320 F2400.00000
G92 E0
G1 X81.323 Y82.729 F7800.000
G1 E2.00000 F2400.00000
G1 F1800
G1 X54.782 Y36.670 E11.86472
G1 X44.599 Y44.499 E14.24819
G1 X32.149 Y60.755 E18.04799
G1 X25.204 Y77.554 E21.42119
G1 X23.064 Y76.979 E21.83232
G1 X30.233 Y59.638 E25.31442
G1 X43.037 Y42.921 E29.22199
G1 X59.721 Y30.093 E33.12744
G1 X66.759 Y27.173 E34.54144
G1 X94.409 Y75.156 E44.81828
G1 X100.000 Y74.419 E45.86479
G1 X106.606 Y75.290 E47.10130
G1 X112.762 Y77.845 E48.33820
G1 X117.237 Y81.285 E49.38553
G1 X163.208 Y54.692 E59.24086
G1 X155.401 Y44.499 E61.62353
G1 X139.175 Y32.024 E65.42160
G1 X122.406 Y25.065 E68.79076
G1 X122.981 Y22.915 E69.20375
G1 X140.279 Y30.093 E72.67914
G1 X156.963 Y42.921 E76.58460
G1 X169.767 Y59.638 E80.49216
G1 X172.685 Y66.699 E81.90991
G1 X124.793 Y94.403 E92.17725
G1 X125.528 Y100.000 E93.22483
G1 X124.658 Y106.622 E94.46426
G1 X122.107 Y112.792 E95.70329
G1 X118.677 Y117.271 E96.75005
G1 X145.218 Y163.330 E106.61477
G1 X155.401 Y155.501 E108.99824
G1 X167.851 Y139.245 E112.79805
G1 X174.796 Y122.446 E116.17124
G1 X176.936 Y123.021 E116.58238
G1 X169.767 Y140.362 E120.06448
G1 X156.963 Y157.079 E123.97204
G1 X140.279 Y169.907 E127.87750
G1 X133.241 Y172.827 E129.29150
G1 X105.591 Y124.844 E139.56833
G1 X100.000 Y125.581 E140.61484
G1 X93.394 Y124.710 E141.85136
G1 X87.238 Y122.155 E143.08826
G1 X82.763 Y118.715 E144.13559
G1 X36.792 Y145.308 E153.99092
G1 X44.599 Y155.501 E156.37359
G1 X60.825 Y167.976 E160.17166
G1 X77.594 Y174.935 E163.54082
G1 X77.019 Y177.085 E163.95381
G1 X59.721 Y169.907 E167.42920
G1 X43.037 Y157.079 E171.33466
G1 X30.233 Y140.362 E175.24222
G1 X27.315 Y133.301 E176.65997
G1 X75.207 Y105.597 E186.92731
G1 X74.472 Y100.000 E187.97490
G1 X75.342 Y93.378 E189.21432
G1 X77.893 Y87.208 E190.45335
G1 X81.277 Y82.789 E191.48620
G1 X80.252 Y82.659 F7800.000
G1 F1800
G1 X54.517 Y37.999 E201.05121
G1 X45.236 Y45.135 E203.22363
G1 X32.929 Y61.205 E206.97984
G1 X25.730 Y78.619 E210.47669
G1 X21.851 Y77.578 E211.22195
G1 X29.453 Y59.189 E214.91452
G1 X42.399 Y42.285 E218.86568
G1 X59.271 Y29.314 E222.81478
G1 X67.141 Y26.048 E224.39610
G1 X94.884 Y74.193 E234.70762
G1 X100.000 Y73.518 E235.66516
G1 X106.840 Y74.420 E236.94537
G1 X113.213 Y77.065 E238.22595
G1 X117.307 Y80.213 E239.18421
G1 X161.881 Y54.428 E248.74008
G1 X154.764 Y45.135 E250.91237
G1 X138.724 Y32.803 E254.66681
G1 X121.342 Y25.589 E258.15925
G1 X122.382 Y21.700 E258.90646
G1 X140.729 Y29.314 E262.59280
G1 X157.601 Y42.285 E266.54190
G1 X170.547 Y59.189 E270.49306
G1 X173.809 Y67.080 E272.07765
G1 X125.755 Y94.877 E282.37949
G1 X126.428 Y100.000 E283.33828
G1 X125.528 Y106.855 E284.62124
G1 X122.887 Y113.242 E285.90384
G1 X119.748 Y117.341 E286.86191
G1 X145.483 Y162.001 E296.42692
G1 X154.764 Y154.865 E298.59935
G1 X167.071 Y138.795 E302.35555
G1 X174.270 Y121.381 E305.85241
G1 X178.149 Y122.422 E306.59767
G1 X170.547 Y140.811 E310.29024
G1 X157.601 Y157.715 E314.24140
G1 X140.729 Y170.686 E318.19050
G1 X132.859 Y173.952 E319.77182
G1 X105.116 Y125.807 E330.08334
G1 X100.000 Y126.482 E331.04088
G1 X93.160 Y125.580 E332.32109
G1 X86.787 Y122.935 E333.60167
G1 X82.693 Y119.787 E334.55993
G1 X38.119 Y145.572 E344.11580
G1 X45.236 Y154.865 E346.28810
G1 X61.276 Y167.197 E350.04253
G1 X78.658 Y174.411 E353.53497
G1 X77.618 Y178.300 E354.28218
G1 X59.271 Y170.686 E357.96853
G1 X42.399 Y157.715 E361.91762
G1 X29.453 Y140.811 E365.86878
G1 X26.191 Y132.920 E367.45338
G1 X74.245 Y105.123 E377.75521
G1 X73.572 Y100.000 E378.71401
G1 X74.472 Y93.145 E379.99697
G1 X77.113 Y86.758 E381.27956
G1 X80.206 Y82.719 E382.22372
G1 X79.181 Y82.589 F7800.000
G1 F1800
G1 X54.253 Y39.329 E391.48902
G1 X45.874 Y45.771 E393.45040
G1 X33.709 Y61.654 E397.16301
G1 X26.255 Y79.684 E400.78352
G1 X20.638 Y78.176 E401.86291
G1 X28.673 Y58.739 E405.76594
G1 X41.762 Y41.649 E409.76070
G1 X58.820 Y28.535 E413.75343
G1 X67.523 Y24.923 E415.50209
G1 X95.360 Y73.230 E425.84829
G1 X100.000 Y72.618 E426.71687
G1 X107.073 Y73.551 E428.04077
G1 X113.664 Y76.286 E429.36503
G1 X117.377 Y79.141 E430.23422
G1 X160.555 Y54.164 E439.49062
G1 X154.126 Y45.771 E441.45255
G1 X138.273 Y33.583 E445.16334
G1 X120.277 Y26.114 E448.77906
G1 X121.783 Y20.484 E449.86050
G1 X141.180 Y28.535 E453.75779
G1 X158.238 Y41.649 E457.75052
G1 X171.327 Y58.739 E461.74529
G1 X174.933 Y67.461 E463.49672
G1 X126.718 Y95.352 E473.83306
G1 X127.329 Y100.000 E474.70306
G1 X126.398 Y107.087 E476.02956
G1 X123.667 Y113.692 E477.35571
G1 X120.819 Y117.411 E478.22510
G1 X145.747 Y160.671 E487.49040
G1 X154.126 Y154.229 E489.45178
G1 X166.291 Y138.346 E493.16439
G1 X173.745 Y120.316 E496.78490
G1 X179.362 Y121.824 E497.86429
G1 X171.327 Y141.261 E501.76732
G1 X158.238 Y158.351 E505.76208
G1 X141.180 Y171.465 E509.75482
G1 X132.477 Y175.077 E511.50348
G1 X104.640 Y126.770 E521.84967
G1 X100.000 Y127.382 E522.71825
G1 X92.927 Y126.449 E524.04216
G1 X86.336 Y123.714 E525.36641
G1 X82.623 Y120.859 E526.23560
G1 X39.445 Y145.836 E535.49201
G1 X45.874 Y154.229 E537.45393
G1 X61.727 Y166.417 E541.16473
G1 X79.723 Y173.886 E544.78044
G1 X78.217 Y179.516 E545.86188
G1 X58.820 Y171.465 E549.75918
G1 X41.762 Y158.351 E553.75191
G1 X28.673 Y141.261 E557.74667
G1 X25.067 Y132.539 E559.49811
G1 X73.282 Y104.648 E569.83444
G1 X72.671 Y100.000 E570.70444
G1 X73.602 Y92.913 E572.03095
G1 X76.333 Y86.308 E573.35710
G1 X79.136 Y82.649 E574.21257
G1 X79.562 Y82.264 F7800.000
G1 E572.21257 F2400.00000
G92 E0
G1 X54.584 Y35.433 F7800.000
G1 E2.00000 F2400.00000
G1 F1800
G1 X43.825 Y43.707 E5.39481
G1 X31.240 Y60.133 E10.57028
G1 X31.156 Y60.281 E10.61287
G1 X24.306 Y76.850 E15.09726
G1 E13.09726 F2400.00000
G92 E0
G1 X55.512 Y34.375 F7800.000
G1 E2.00000 F2400.00000
G1 F1800
G1 X54.817 Y35.070 E2.18286
G1 X55.367 Y35.786 E2.35078
G1 X60.704 Y30.449 E3.75490
G1 X62.868 Y29.551 E4.19070
G1 X55.442 Y36.977 E6.14448
G1 X55.904 Y37.780 E6.31689
G1 X65.031 Y28.653 E8.71816
G1 X66.724 Y27.951 E9.05921
G1 X66.825 Y28.125 E9.09669
G1 X56.367 Y38.583 E11.84817
G1 X56.830 Y39.386 E12.02058
G1 X67.288 Y28.928 E14.77206
G1 X67.750 Y29.731 E14.94447
G1 X57.292 Y40.189 E17.69595
G1 X57.755 Y40.992 E17.86836
G1 X68.213 Y30.534 E20.61984
G1 X68.676 Y31.337 E20.79225
G1 X58.218 Y41.795 E23.54373
G1 X58.680 Y42.598 E23.71614
G1 X69.138 Y32.140 E26.46761
G1 X69.601 Y32.943 E26.64002
G1 X59.143 Y43.401 E29.39150
G1 X59.606 Y44.204 E29.56391
G1 X70.064 Y33.746 E32.31539
G1 X70.526 Y34.549 E32.48780
G1 X60.069 Y45.007 E35.23928
G1 X60.531 Y45.810 E35.41169
G1 X70.989 Y35.352 E38.16317
G1 X71.452 Y36.155 E38.33558
G1 X60.994 Y46.613 E41.08706
G1 X61.457 Y47.416 E41.25947
G1 X71.915 Y36.958 E44.01094
G1 X72.377 Y37.761 E44.18335
G1 X61.919 Y48.219 E46.93483
G1 X62.382 Y49.022 E47.10724
G1 X72.840 Y38.564 E49.85872
G1 X73.303 Y39.367 E50.03113
G1 X62.845 Y49.825 E52.78261
G1 X63.307 Y50.628 E52.95502
G1 X73.765 Y40.170 E55.70650
G1 X74.228 Y40.973 E55.87891
G1 X63.770 Y51.430 E58.63039
G1 X64.233 Y52.233 E58.80280
G1 X74.691 Y41.776 E61.55428
G1 X75.153 Y42.579 E61.72669
G1 X64.696 Y53.036 E64.47817
G1 X65.158 Y53.839 E64.65058
G1 X75.616 Y43.381 E67.40205
G1 X76.079 Y44.184 E67.57446
G1 X65.621 Y54.642 E70.32594
G1 X66.084 Y55.445 E70.49835
G1 X76.542 Y44.987 E73.24983
G1 X77.004 Y45.790 E73.42224
G1 X66.546 Y56.248 E76.17372
G1 X67.009 Y57.051 E76.34613
G1 X77.467 Y46.593 E79.09761
G1 X77.930 Y47.396 E79.27002
G1 X67.472 Y57.854 E82.02150
G1 X67.934 Y58.657 E82.19391
G1 X78.392 Y48.199 E84.94539
G1 X78.855 Y49.002 E85.11780
G1 X68.397 Y59.460 E87.86928
G1 X68.860 Y60.263 E88.04169
G1 X79.318 Y49.805 E90.79316
G1 X79.780 Y50.608 E90.96557
G1 X69.323 Y61.066 E93.71705
G1 X69.785 Y61.869 E93.88946
G1 X80.243 Y51.411 E96.64094
G1 X80.706 Y52.214 E96.81335
G1 X70.248 Y62.672 E99.56483
G1 X70.711 Y63.475 E99.73724
G1 X81.169 Y53.017 E102.48872
G1 X81.631 Y53.820 E102.66113
G1 X71.173 Y64.278 E105.41261
G1 X71.636 Y65.081 E105.58502
G1 X82.094 Y54.623 E108.33650
G1 X82.557 Y55.426 E108.50891
G1 X72.099 Y65.884 E111.26039
G1 X72.561 Y66.687 E111.43280
G1 X83.019 Y56.229 E114.18427
G1 X83.482 Y57.032 E114.35668
G1 X73.024 Y67.490 E117.10816
G1 X73.487 Y68.293 E117.28057
G1 X83.945 Y57.835 E120.03205
G1 X84.407 Y58.638 E120.20446
G1 X73.950 Y69.096 E122.95594
G1 X74.412 Y69.899 E123.12835
G1 X84.870 Y59.441 E125.87983
G1 X85.333 Y60.244 E126.05224
G1 X74.875 Y70.702 E128.80372
G1 X75.338 Y71.505 E128.97613
G1 X85.796 Y61.047 E131.72761
G1 X86.258 Y61.850 E131.90002
G1 X75.800 Y72.308 E134.65150
G1 X76.263 Y73.110 E134.82391
G1 X86.721 Y62.653 E137.57538
G1 X87.184 Y63.456 E137.74780
G1 X76.726 Y73.913 E140.49927
G1 X77.188 Y74.716 E140.67168
G1 X87.646 Y64.258 E143.42316
G1 X88.109 Y65.061 E143.59557
G1 X77.651 Y75.519 E146.34705
G1 X78.114 Y76.322 E146.51946
G1 X88.572 Y65.864 E149.27094
G1 X89.034 Y66.667 E149.44335
G1 X78.577 Y77.125 E152.19483
G1 X79.039 Y77.928 E152.36724
G1 X89.497 Y67.470 E155.11872
G1 X89.960 Y68.273 E155.29113
G1 X79.502 Y78.731 E158.04261
G1 X79.965 Y79.534 E158.21502
G1 X90.423 Y69.076 E160.96650
G1 X90.885 Y69.879 E161.13891
G1 X80.427 Y80.337 E163.89039
G1 X80.890 Y81.140 E164.06280
G1 X91.348 Y70.682 E166.81427
G1 X91.811 Y71.485 E166.98668
G1 X81.353 Y81.943 E169.73816
G1 X81.815 Y82.746 E169.91057
G1 X92.273 Y72.288 E172.66205
G1 X92.736 Y73.091 E172.83446
G1 X79.972 Y85.856 E176.19280
G1 X78.326 Y88.004 E176.69633
G1 X77.789 Y89.304 E176.95802
G1 X93.199 Y73.894 E181.01247
G1 X93.661 Y74.697 E181.18488
G1 X76.896 Y91.462 E185.59575
G1 X76.004 Y93.620 E186.03011
G1 X94.124 Y75.500 E190.79741
G1 X94.281 Y75.772 E190.85581
G1 X95.245 Y75.645 E191.03673
G1 X75.703 Y95.187 E196.17820
G1 X75.512 Y96.644 E196.45161
G1 X96.703 Y75.452 E202.02704
G1 X98.161 Y75.260 E202.30063
G1 X75.320 Y98.101 E208.31003
G1 X75.129 Y99.558 E208.58345
G1 X99.619 Y75.068 E215.02682
G1 X100.347 Y74.972 E215.16346
G1 X100.907 Y75.046 E215.26849
G1 X75.093 Y100.860 E222.06026
G1 X75.239 Y101.979 E222.27017
G1 X102.025 Y75.193 E229.31746
G1 X103.143 Y75.341 E229.52729
G1 X75.386 Y103.097 E236.83009
G1 X75.533 Y104.216 E237.04000
G1 X104.261 Y75.488 E244.59832
G1 X105.380 Y75.636 E244.80815
G1 X75.680 Y105.335 E252.62199
G1 E250.62199 F2400.00000
G92 E0
G1 X85.079 Y119.984 F7800.000
G1 E2.00000 F2400.00000
G1 F1800
G1 X101.219 Y103.843 E6.24656
G1 X100.351 Y103.958 E6.40958
G1 X99.898 Y103.899 E6.49455
G1 X84.363 Y119.434 E10.58168
G1 X83.648 Y118.883 E10.74960
G1 X98.870 Y103.661 E14.75457
G1 X98.197 Y103.383 E14.88997
G1 X98.019 Y103.247 E14.93178
G1 X82.932 Y118.333 E18.90111
G1 X82.486 Y117.990 E19.00576
G1 X81.355 Y118.645 E19.24891
G1 X97.303 Y102.697 E23.44483
G1 X96.753 Y101.981 E23.61275
G1 X78.353 Y120.382 E28.45391
G1 X75.350 Y122.119 E29.09922
G1 X96.339 Y101.130 E34.62130
G1 X96.189 Y100.771 E34.69371
G1 X96.101 Y100.102 E34.81914
G1 X72.348 Y123.855 E41.06861
G1 X69.345 Y125.592 E41.71391
G1 E39.71391 F2400.00000
G92 E0
G1 X31.573 Y131.723 F7800.000
G1 E2.00000 F2400.00000
G1 F1800
G1 X28.435 Y134.861 E2.82564
G1 X28.805 Y135.757 E3.00590
G1 X34.575 Y129.986 E4.52409
G1 X37.578 Y128.249 E5.16940
G1 X29.175 Y136.652 E7.38015
G1 X29.545 Y137.547 E7.56042
G1 X40.580 Y126.513 E10.46372
G1 X43.583 Y124.776 E11.10903
G1 X29.916 Y138.443 E14.70489
G1 X30.286 Y139.338 E14.88516
G1 X46.585 Y123.039 E19.17358
